(G-CODE GENERATED BY FLATCAM v8.994 - www.flatcam.org - Version Date: 2020/11/7)

(Name: drill_1_16.xln_cnc)
(Type: G-code from Geometry)
(Units: MM)

(Created on Saturday, 15 May 2021 at 12:43)

(This preprocessor is the default preprocessor used by FlatCAM.)
(It is made to work with MACH3 compatible motion controllers.)


(TOOLS DIAMETER: )
(Tool: 1 -> Dia: 0.813)
(Tool: 2 -> Dia: 1.0)
(Tool: 3 -> Dia: 1.016)
(Tool: 4 -> Dia: 1.194)
(Tool: 5 -> Dia: 1.5)
(Tool: 6 -> Dia: 1.8)
(Tool: 7 -> Dia: 3.0)

(FEEDRATE Z: )
(Tool: 1 -> Feedrate: 200.0)
(Tool: 2 -> Feedrate: 200.0)
(Tool: 3 -> Feedrate: 200.0)
(Tool: 4 -> Feedrate: 200.0)
(Tool: 5 -> Feedrate: 200.0)
(Tool: 6 -> Feedrate: 200.0)
(Tool: 7 -> Feedrate: 200.0)

(FEEDRATE RAPIDS: )
(Tool: 1 -> Feedrate Rapids: 1500)
(Tool: 2 -> Feedrate Rapids: 1500)
(Tool: 3 -> Feedrate Rapids: 1500)
(Tool: 4 -> Feedrate Rapids: 1500)
(Tool: 5 -> Feedrate Rapids: 1500)
(Tool: 6 -> Feedrate Rapids: 1500)
(Tool: 7 -> Feedrate Rapids: 1500)

(Z_CUT: )
(Tool: 1 -> Z_Cut: -1.7)
(Tool: 2 -> Z_Cut: -1.7)
(Tool: 3 -> Z_Cut: -1.7)
(Tool: 4 -> Z_Cut: -1.7)
(Tool: 5 -> Z_Cut: -1.7)
(Tool: 6 -> Z_Cut: -1.7)
(Tool: 7 -> Z_Cut: -1.7)

(Tools Offset: )
(Tool: 1 -> Offset Z: 0.0)
(Tool: 2 -> Offset Z: 0.0)
(Tool: 3 -> Offset Z: 0.0)
(Tool: 4 -> Offset Z: 0.0)
(Tool: 5 -> Offset Z: 0.0)
(Tool: 6 -> Offset Z: 0.0)
(Tool: 7 -> Offset Z: 0.0)

(Z_MOVE: )
(Tool: 1 -> Z_Move: 2)
(Tool: 2 -> Z_Move: 2)
(Tool: 3 -> Z_Move: 2)
(Tool: 4 -> Z_Move: 2)
(Tool: 5 -> Z_Move: 2)
(Tool: 6 -> Z_Move: 2)
(Tool: 7 -> Z_Move: 2)

(Z Toolchange: 15 mm)
(X,Y Toolchange: 0.0000, 0.0000 mm)
(Z Start: None mm)
(Z End: 0.5 mm)
(X,Y End: None mm)
(Steps per circle: 64)
(Preprocessor Excellon: default)

(X range:    4.1910 ...   82.0570  mm)
(Y range:    3.8180 ...   78.7480  mm)

(Spindle Speed: 0 RPM)
G21
G90
G94

G01 F200.00

M5
G00 Z15.0000
T1
G00 X0.0000 Y0.0000                
M6
(MSG, Change to Tool Dia = 0.8130 ||| Total drills for tool T1 = 183)
M0
G00 Z15.0000

G01 F200.00
M03
G00 X17.7800 Y22.0980
G01 Z-1.7000
G01 Z0
G00 Z2.0000
G00 X19.0500 Y29.9480
G01 Z-1.7000
G01 Z0
G00 Z2.0000
G00 X21.5900 Y29.9480
G01 Z-1.7000
G01 Z0
G00 Z2.0000
G00 X24.1300 Y29.9480
G01 Z-1.7000
G01 Z0
G00 Z2.0000
G00 X27.9400 Y22.0980
G01 Z-1.7000
G01 Z0
G00 Z2.0000
G00 X27.9400 Y19.5580
G01 Z-1.7000
G01 Z0
G00 Z2.0000
G00 X25.4000 Y14.4780
G01 Z-1.7000
G01 Z0
G00 Z2.0000
G00 X22.8600 Y14.4780
G01 Z-1.7000
G01 Z0
G00 Z2.0000
G00 X20.3200 Y14.4780
G01 Z-1.7000
G01 Z0
G00 Z2.0000
G00 X20.3200 Y5.5880
G01 Z-1.7000
G01 Z0
G00 Z2.0000
G00 X22.8600 Y5.5880
G01 Z-1.7000
G01 Z0
G00 Z2.0000
G00 X25.4000 Y5.5880
G01 Z-1.7000
G01 Z0
G00 Z2.0000
G00 X28.5750 Y6.0960
G01 Z-1.7000
G01 Z0
G00 Z2.0000
G00 X40.6400 Y14.4780
G01 Z-1.7000
G01 Z0
G00 Z2.0000
G00 X43.1800 Y13.3350
G01 Z-1.7000
G01 Z0
G00 Z2.0000
G00 X45.7200 Y13.3350
G01 Z-1.7000
G01 Z0
G00 Z2.0000
G00 X44.5770 Y17.1450
G01 Z-1.7000
G01 Z0
G00 Z2.0000
G00 X44.5770 Y19.6850
G01 Z-1.7000
G01 Z0
G00 Z2.0000
G00 X50.8000 Y22.0980
G01 Z-1.7000
G01 Z0
G00 Z2.0000
G00 X50.8000 Y19.5580
G01 Z-1.7000
G01 Z0
G00 Z2.0000
G00 X50.8000 Y17.0180
G01 Z-1.7000
G01 Z0
G00 Z2.0000
G00 X50.8000 Y14.4780
G01 Z-1.7000
G01 Z0
G00 Z2.0000
G00 X50.8000 Y11.9380
G01 Z-1.7000
G01 Z0
G00 Z2.0000
G00 X50.8000 Y9.3980
G01 Z-1.7000
G01 Z0
G00 Z2.0000
G00 X45.7200 Y9.3980
G01 Z-1.7000
G01 Z0
G00 Z2.0000
G00 X43.1800 Y9.3980
G01 Z-1.7000
G01 Z0
G00 Z2.0000
G00 X43.1800 Y5.9690
G01 Z-1.7000
G01 Z0
G00 Z2.0000
G00 X45.7200 Y5.9690
G01 Z-1.7000
G01 Z0
G00 Z2.0000
G00 X50.8000 Y4.3180
G01 Z-1.7000
G01 Z0
G00 Z2.0000
G00 X50.8000 Y6.8580
G01 Z-1.7000
G01 Z0
G00 Z2.0000
G00 X63.5000 Y4.3180
G01 Z-1.7000
G01 Z0
G00 Z2.0000
G00 X63.5000 Y6.8580
G01 Z-1.7000
G01 Z0
G00 Z2.0000
G00 X63.5000 Y9.3980
G01 Z-1.7000
G01 Z0
G00 Z2.0000
G00 X71.1200 Y9.3980
G01 Z-1.7000
G01 Z0
G00 Z2.0000
G00 X81.2800 Y8.2480
G01 Z-1.7000
G01 Z0
G00 Z2.0000
G00 X81.2800 Y13.2480
G01 Z-1.7000
G01 Z0
G00 Z2.0000
G00 X81.2800 Y18.2480
G01 Z-1.7000
G01 Z0
G00 Z2.0000
G00 X81.2800 Y23.2480
G01 Z-1.7000
G01 Z0
G00 Z2.0000
G00 X81.2800 Y28.5680
G01 Z-1.7000
G01 Z0
G00 Z2.0000
G00 X81.2800 Y33.5680
G01 Z-1.7000
G01 Z0
G00 Z2.0000
G00 X81.2800 Y38.5680
G01 Z-1.7000
G01 Z0
G00 Z2.0000
G00 X81.2800 Y43.5680
G01 Z-1.7000
G01 Z0
G00 Z2.0000
G00 X81.2800 Y48.8880
G01 Z-1.7000
G01 Z0
G00 Z2.0000
G00 X81.2800 Y53.8880
G01 Z-1.7000
G01 Z0
G00 Z2.0000
G00 X81.2800 Y58.8880
G01 Z-1.7000
G01 Z0
G00 Z2.0000
G00 X81.2800 Y63.8880
G01 Z-1.7000
G01 Z0
G00 Z2.0000
G00 X77.6570 Y70.5840
G01 Z-1.7000
G01 Z0
G00 Z2.0000
G00 X80.5570 Y75.2840
G01 Z-1.7000
G01 Z0
G00 Z2.0000
G00 X74.6570 Y75.2840
G01 Z-1.7000
G01 Z0
G00 Z2.0000
G00 X67.6910 Y65.4050
G01 Z-1.7000
G01 Z0
G00 Z2.0000
G00 X71.1200 Y62.7380
G01 Z-1.7000
G01 Z0
G00 Z2.0000
G00 X71.1200 Y60.1980
G01 Z-1.7000
G01 Z0
G00 Z2.0000
G00 X71.1200 Y57.6580
G01 Z-1.7000
G01 Z0
G00 Z2.0000
G00 X71.1200 Y55.1180
G01 Z-1.7000
G01 Z0
G00 Z2.0000
G00 X67.3100 Y43.6880
G01 Z-1.7000
G01 Z0
G00 Z2.0000
G00 X71.1200 Y39.8780
G01 Z-1.7000
G01 Z0
G00 Z2.0000
G00 X71.1200 Y37.3380
G01 Z-1.7000
G01 Z0
G00 Z2.0000
G00 X71.1200 Y34.7980
G01 Z-1.7000
G01 Z0
G00 Z2.0000
G00 X71.1200 Y32.2580
G01 Z-1.7000
G01 Z0
G00 Z2.0000
G00 X67.3100 Y20.8280
G01 Z-1.7000
G01 Z0
G00 Z2.0000
G00 X71.1200 Y17.0180
G01 Z-1.7000
G01 Z0
G00 Z2.0000
G00 X71.1200 Y14.4780
G01 Z-1.7000
G01 Z0
G00 Z2.0000
G00 X71.1200 Y11.9380
G01 Z-1.7000
G01 Z0
G00 Z2.0000
G00 X63.5000 Y11.9380
G01 Z-1.7000
G01 Z0
G00 Z2.0000
G00 X63.5000 Y14.4780
G01 Z-1.7000
G01 Z0
G00 Z2.0000
G00 X63.5000 Y17.0180
G01 Z-1.7000
G01 Z0
G00 Z2.0000
G00 X63.5000 Y19.5580
G01 Z-1.7000
G01 Z0
G00 Z2.0000
G00 X63.5000 Y22.0980
G01 Z-1.7000
G01 Z0
G00 Z2.0000
G00 X63.5000 Y27.1780
G01 Z-1.7000
G01 Z0
G00 Z2.0000
G00 X63.5000 Y29.7180
G01 Z-1.7000
G01 Z0
G00 Z2.0000
G00 X63.5000 Y32.2580
G01 Z-1.7000
G01 Z0
G00 Z2.0000
G00 X63.5000 Y34.7980
G01 Z-1.7000
G01 Z0
G00 Z2.0000
G00 X63.5000 Y37.3380
G01 Z-1.7000
G01 Z0
G00 Z2.0000
G00 X63.5000 Y39.8780
G01 Z-1.7000
G01 Z0
G00 Z2.0000
G00 X63.5000 Y42.4180
G01 Z-1.7000
G01 Z0
G00 Z2.0000
G00 X63.5000 Y44.9580
G01 Z-1.7000
G01 Z0
G00 Z2.0000
G00 X63.5000 Y50.0380
G01 Z-1.7000
G01 Z0
G00 Z2.0000
G00 X63.5000 Y52.5780
G01 Z-1.7000
G01 Z0
G00 Z2.0000
G00 X63.5000 Y55.1180
G01 Z-1.7000
G01 Z0
G00 Z2.0000
G00 X63.5000 Y57.6580
G01 Z-1.7000
G01 Z0
G00 Z2.0000
G00 X63.5000 Y60.1980
G01 Z-1.7000
G01 Z0
G00 Z2.0000
G00 X63.5000 Y62.7380
G01 Z-1.7000
G01 Z0
G00 Z2.0000
G00 X63.5000 Y65.2780
G01 Z-1.7000
G01 Z0
G00 Z2.0000
G00 X63.5000 Y67.8180
G01 Z-1.7000
G01 Z0
G00 Z2.0000
G00 X57.2370 Y76.2000
G01 Z-1.7000
G01 Z0
G00 Z2.0000
G00 X52.2370 Y76.2000
G01 Z-1.7000
G01 Z0
G00 Z2.0000
G00 X35.4330 Y68.8340
G01 Z-1.7000
G01 Z0
G00 Z2.0000
G00 X35.4330 Y66.0400
G01 Z-1.7000
G01 Z0
G00 Z2.0000
G00 X35.4330 Y63.5000
G01 Z-1.7000
G01 Z0
G00 Z2.0000
G00 X35.4330 Y60.9600
G01 Z-1.7000
G01 Z0
G00 Z2.0000
G00 X35.4330 Y58.4200
G01 Z-1.7000
G01 Z0
G00 Z2.0000
G00 X40.6400 Y56.3880
G01 Z-1.7000
G01 Z0
G00 Z2.0000
G00 X43.1800 Y55.4990
G01 Z-1.7000
G01 Z0
G00 Z2.0000
G00 X43.1800 Y51.6890
G01 Z-1.7000
G01 Z0
G00 Z2.0000
G00 X45.7200 Y51.6890
G01 Z-1.7000
G01 Z0
G00 Z2.0000
G00 X45.7200 Y55.4990
G01 Z-1.7000
G01 Z0
G00 Z2.0000
G00 X45.7200 Y59.3090
G01 Z-1.7000
G01 Z0
G00 Z2.0000
G00 X43.1800 Y59.3090
G01 Z-1.7000
G01 Z0
G00 Z2.0000
G00 X44.4500 Y64.0080
G01 Z-1.7000
G01 Z0
G00 Z2.0000
G00 X44.4500 Y66.5480
G01 Z-1.7000
G01 Z0
G00 Z2.0000
G00 X50.8000 Y67.8180
G01 Z-1.7000
G01 Z0
G00 Z2.0000
G00 X50.8000 Y65.2780
G01 Z-1.7000
G01 Z0
G00 Z2.0000
G00 X50.8000 Y62.7380
G01 Z-1.7000
G01 Z0
G00 Z2.0000
G00 X50.8000 Y60.1980
G01 Z-1.7000
G01 Z0
G00 Z2.0000
G00 X50.8000 Y57.6580
G01 Z-1.7000
G01 Z0
G00 Z2.0000
G00 X50.8000 Y55.1180
G01 Z-1.7000
G01 Z0
G00 Z2.0000
G00 X50.8000 Y52.5780
G01 Z-1.7000
G01 Z0
G00 Z2.0000
G00 X50.8000 Y50.0380
G01 Z-1.7000
G01 Z0
G00 Z2.0000
G00 X50.8000 Y44.9580
G01 Z-1.7000
G01 Z0
G00 Z2.0000
G00 X50.8000 Y42.4180
G01 Z-1.7000
G01 Z0
G00 Z2.0000
G00 X50.8000 Y39.8780
G01 Z-1.7000
G01 Z0
G00 Z2.0000
G00 X50.8000 Y37.3380
G01 Z-1.7000
G01 Z0
G00 Z2.0000
G00 X50.8000 Y34.7980
G01 Z-1.7000
G01 Z0
G00 Z2.0000
G00 X50.8000 Y32.2580
G01 Z-1.7000
G01 Z0
G00 Z2.0000
G00 X50.8000 Y29.7180
G01 Z-1.7000
G01 Z0
G00 Z2.0000
G00 X50.8000 Y27.1780
G01 Z-1.7000
G01 Z0
G00 Z2.0000
G00 X45.7200 Y28.4480
G01 Z-1.7000
G01 Z0
G00 Z2.0000
G00 X45.7200 Y32.2580
G01 Z-1.7000
G01 Z0
G00 Z2.0000
G00 X45.7200 Y36.0680
G01 Z-1.7000
G01 Z0
G00 Z2.0000
G00 X44.4500 Y40.1320
G01 Z-1.7000
G01 Z0
G00 Z2.0000
G00 X44.4500 Y42.6720
G01 Z-1.7000
G01 Z0
G00 Z2.0000
G00 X40.6400 Y38.6080
G01 Z-1.7000
G01 Z0
G00 Z2.0000
G00 X43.1800 Y36.0680
G01 Z-1.7000
G01 Z0
G00 Z2.0000
G00 X43.1800 Y32.2580
G01 Z-1.7000
G01 Z0
G00 Z2.0000
G00 X43.1800 Y28.4480
G01 Z-1.7000
G01 Z0
G00 Z2.0000
G00 X30.4800 Y29.7180
G01 Z-1.7000
G01 Z0
G00 Z2.0000
G00 X30.4800 Y32.2580
G01 Z-1.7000
G01 Z0
G00 Z2.0000
G00 X30.4800 Y34.7980
G01 Z-1.7000
G01 Z0
G00 Z2.0000
G00 X30.4800 Y37.3380
G01 Z-1.7000
G01 Z0
G00 Z2.0000
G00 X30.4800 Y39.8780
G01 Z-1.7000
G01 Z0
G00 Z2.0000
G00 X30.4800 Y42.4180
G01 Z-1.7000
G01 Z0
G00 Z2.0000
G00 X30.4800 Y44.9580
G01 Z-1.7000
G01 Z0
G00 Z2.0000
G00 X30.4800 Y47.4980
G01 Z-1.7000
G01 Z0
G00 Z2.0000
G00 X30.4800 Y50.0380
G01 Z-1.7000
G01 Z0
G00 Z2.0000
G00 X30.4800 Y52.5780
G01 Z-1.7000
G01 Z0
G00 Z2.0000
G00 X30.4800 Y55.1180
G01 Z-1.7000
G01 Z0
G00 Z2.0000
G00 X30.4800 Y57.6580
G01 Z-1.7000
G01 Z0
G00 Z2.0000
G00 X30.4800 Y60.1980
G01 Z-1.7000
G01 Z0
G00 Z2.0000
G00 X30.4800 Y62.7380
G01 Z-1.7000
G01 Z0
G00 Z2.0000
G00 X30.4800 Y65.2780
G01 Z-1.7000
G01 Z0
G00 Z2.0000
G00 X30.4800 Y67.8180
G01 Z-1.7000
G01 Z0
G00 Z2.0000
G00 X30.4800 Y70.3580
G01 Z-1.7000
G01 Z0
G00 Z2.0000
G00 X30.4800 Y72.8980
G01 Z-1.7000
G01 Z0
G00 Z2.0000
G00 X30.4800 Y75.4380
G01 Z-1.7000
G01 Z0
G00 Z2.0000
G00 X30.4800 Y77.9780
G01 Z-1.7000
G01 Z0
G00 Z2.0000
G00 X24.3150 Y77.8480
G01 Z-1.7000
G01 Z0
G00 Z2.0000
G00 X24.0150 Y74.8180
G01 Z-1.7000
G01 Z0
G00 Z2.0000
G00 X19.1650 Y74.8180
G01 Z-1.7000
G01 Z0
G00 Z2.0000
G00 X18.8650 Y77.8480
G01 Z-1.7000
G01 Z0
G00 Z2.0000
G00 X12.7000 Y77.9780
G01 Z-1.7000
G01 Z0
G00 Z2.0000
G00 X12.7000 Y75.4380
G01 Z-1.7000
G01 Z0
G00 Z2.0000
G00 X12.7000 Y72.8980
G01 Z-1.7000
G01 Z0
G00 Z2.0000
G00 X12.7000 Y70.3580
G01 Z-1.7000
G01 Z0
G00 Z2.0000
G00 X9.3980 Y68.8340
G01 Z-1.7000
G01 Z0
G00 Z2.0000
G00 X12.7000 Y67.8180
G01 Z-1.7000
G01 Z0
G00 Z2.0000
G00 X12.7000 Y65.2780
G01 Z-1.7000
G01 Z0
G00 Z2.0000
G00 X12.7000 Y62.7380
G01 Z-1.7000
G01 Z0
G00 Z2.0000
G00 X12.7000 Y60.1980
G01 Z-1.7000
G01 Z0
G00 Z2.0000
G00 X12.7000 Y57.6580
G01 Z-1.7000
G01 Z0
G00 Z2.0000
G00 X12.7000 Y55.1180
G01 Z-1.7000
G01 Z0
G00 Z2.0000
G00 X12.7000 Y52.5780
G01 Z-1.7000
G01 Z0
G00 Z2.0000
G00 X12.7000 Y50.0380
G01 Z-1.7000
G01 Z0
G00 Z2.0000
G00 X12.7000 Y47.4980
G01 Z-1.7000
G01 Z0
G00 Z2.0000
G00 X8.6360 Y48.0060
G01 Z-1.7000
G01 Z0
G00 Z2.0000
G00 X8.6360 Y50.5460
G01 Z-1.7000
G01 Z0
G00 Z2.0000
G00 X8.6360 Y53.0860
G01 Z-1.7000
G01 Z0
G00 Z2.0000
G00 X4.9530 Y53.0860
G01 Z-1.7000
G01 Z0
G00 Z2.0000
G00 X4.9530 Y50.5460
G01 Z-1.7000
G01 Z0
G00 Z2.0000
G00 X4.9530 Y48.0060
G01 Z-1.7000
G01 Z0
G00 Z2.0000
G00 X4.6990 Y43.6880
G01 Z-1.7000
G01 Z0
G00 Z2.0000
G00 X7.2390 Y43.6880
G01 Z-1.7000
G01 Z0
G00 Z2.0000
G00 X12.7000 Y44.9580
G01 Z-1.7000
G01 Z0
G00 Z2.0000
G00 X12.7000 Y42.4180
G01 Z-1.7000
G01 Z0
G00 Z2.0000
G00 X12.7000 Y39.8780
G01 Z-1.7000
G01 Z0
G00 Z2.0000
G00 X7.2390 Y39.8780
G01 Z-1.7000
G01 Z0
G00 Z2.0000
G00 X4.6990 Y39.8780
G01 Z-1.7000
G01 Z0
G00 Z2.0000
G00 X4.6990 Y36.0680
G01 Z-1.7000
G01 Z0
G00 Z2.0000
G00 X7.2390 Y36.0680
G01 Z-1.7000
G01 Z0
G00 Z2.0000
G00 X12.7000 Y37.3380
G01 Z-1.7000
G01 Z0
G00 Z2.0000
G00 X12.7000 Y34.7980
G01 Z-1.7000
G01 Z0
G00 Z2.0000
G00 X12.7000 Y32.2580
G01 Z-1.7000
G01 Z0
G00 Z2.0000
G00 X12.7000 Y29.7180
G01 Z-1.7000
G01 Z0
G00 Z2.0000
G00 X17.7800 Y19.5580
G01 Z-1.7000
G01 Z0
G00 Z2.0000
M05
G00 Z0.50


