(G-CODE GENERATED BY FLATCAM v8.994 - www.flatcam.org - Version Date: 2020/11/7)

(Name: copper_bottom.gbr_iso_combined_cnc)
(Type: G-code from Geometry)
(Units: MM)

(Created on Saturday, 15 May 2021 at 12:42)

(This preprocessor is the default preprocessor used by FlatCAM.)
(It is made to work with MACH3 compatible motion controllers.)

(TOOL DIAMETER: 0.3 mm)
(Feedrate_XY: 300.0 mm/min)
(Feedrate_Z: 80.0 mm/min)
(Feedrate rapids 1500.0 mm/min)

(Z_Cut: 0.0 mm)
(Z_Move: 2.0 mm)
(Z Start: None mm)
(Z End: 15.0 mm)
(X,Y End: None mm)
(Steps per circle: 64)
(Preprocessor Geometry: default)

(X range:    1.1201 ...   84.2239  mm)
(Y range:    1.1201 ...   80.9219  mm)

(Spindle Speed: 0.0 RPM)
G21
G90
G94

G01 F300.00

M5
G00 Z15.0000
G00 X0.0000 Y0.0000
T1
M6    
(MSG, Change to Tool Dia = 0.3000)
M0
G00 Z15.0000

M03
G01 F300.00
G00 X1.1203 Y1.3893
G01 F80.00
G01 Z0.0000
G01 F300.00
G01 X1.1207 Y1.3776
G01 X1.1221 Y1.3639
G01 X1.1243 Y1.3499
G01 X1.1276 Y1.3366
G01 X1.1305 Y1.3225
G01 X1.1325 Y1.3151
G01 X1.1376 Y1.3000
G01 X1.1416 Y1.2899
G01 X1.1592 Y1.2554
G01 X1.1628 Y1.2492
G01 X1.1703 Y1.2381
G01 X1.1795 Y1.2258
G01 X1.1897 Y1.2146
G01 X1.1993 Y1.2033
G01 X1.2044 Y1.1979
G01 X1.2098 Y1.1928
G01 X1.2234 Y1.1812
G01 X1.2296 Y1.1767
G01 X1.2423 Y1.1683
G01 X1.2513 Y1.1619
G01 X1.2603 Y1.1562
G01 X1.2666 Y1.1528
G01 X1.2794 Y1.1463
G01 X1.2861 Y1.1434
G01 X1.3215 Y1.1307
G01 X1.3425 Y1.1255
G01 X1.3571 Y1.1232
G01 X1.3713 Y1.1222
G01 X1.3856 Y1.1205
G01 X1.3970 Y1.1201
G01 X37.8146 Y1.1201
G01 X37.8378 Y1.1210
G01 X37.8569 Y1.1234
G01 X37.8936 Y1.1320
G01 X37.9078 Y1.1362
G01 X37.9170 Y1.1397
G01 X37.9271 Y1.1441
G01 X37.9579 Y1.1605
G01 X37.9701 Y1.1679
G01 X37.9778 Y1.1733
G01 X37.9865 Y1.1802
G01 X38.0148 Y1.2060
G01 X38.0202 Y1.2116
G01 X38.0281 Y1.2208
G01 X38.0367 Y1.2323
G01 X38.0538 Y1.2582
G01 X38.0594 Y1.2676
G01 X38.0628 Y1.2741
G01 X38.0668 Y1.2830
G01 X38.0708 Y1.2929
G01 X38.0809 Y1.3225
G01 X38.0839 Y1.3330
G01 X38.0861 Y1.3427
G01 X38.0880 Y1.3536
G01 X38.0910 Y1.3907
G01 X38.0914 Y1.3979
G01 X38.0912 Y1.4088
G01 X38.0905 Y1.4190
G01 X38.0892 Y1.4296
G01 X38.0824 Y1.4666
G01 X38.0787 Y1.4799
G01 X38.0752 Y1.4903
G01 X38.0586 Y1.5273
G01 X38.0536 Y1.5367
G01 X38.0481 Y1.5458
G01 X38.0394 Y1.5581
G01 X38.0203 Y1.5818
G01 X38.0129 Y1.5901
G01 X31.1524 Y8.4509
G01 X31.1422 Y8.4604
G01 X31.1265 Y8.4736
G01 X31.1169 Y8.4805
G01 X31.0935 Y8.4956
G01 X31.0838 Y8.5008
G01 X31.0626 Y8.5107
G01 X31.0360 Y8.5201
G01 X31.0256 Y8.5231
G01 X31.0074 Y8.5271
G01 X30.9961 Y8.5291
G01 X30.9676 Y8.5315
G01 X30.9566 Y8.5319
G01 X27.6345 Y8.5319
G01 X27.6252 Y8.5316
G01 X27.6013 Y8.5299
G01 X27.5836 Y8.5272
G01 X27.5723 Y8.5245
G01 X27.5402 Y8.5153
G01 X27.5299 Y8.5115
G01 X27.5138 Y8.5042
G01 X27.4802 Y8.4847
G01 X27.4707 Y8.4783
G01 X27.4557 Y8.4663
G01 X27.4287 Y8.4400
G01 X27.4213 Y8.4317
G01 X27.4104 Y8.4176
G01 X27.4043 Y8.4083
G01 X27.3982 Y8.3976
G01 X27.2601 Y8.2581
G01 X27.0915 Y8.1883
G01 X25.6085 Y8.1883
G01 X25.4396 Y8.2583
G01 X25.3089 Y8.3890
G01 X25.3003 Y8.4055
G01 X25.2900 Y8.4220
G01 X25.2664 Y8.4520
G01 X25.2528 Y8.4664
G01 X25.2414 Y8.4765
G01 X25.2108 Y8.4995
G01 X25.2012 Y8.5055
G01 X25.1902 Y8.5116
G01 X25.1753 Y8.5183
G01 X25.1833 Y8.5233
G01 X25.1923 Y8.5297
G01 X25.1980 Y8.5344
G01 X25.2061 Y8.5419
G01 X25.2136 Y8.5500
G01 X25.2205 Y8.5586
G01 X25.2267 Y8.5678
G01 X25.2305 Y8.5741
G01 X25.2340 Y8.5806
G01 X25.2386 Y8.5906
G01 X25.2412 Y8.5975
G01 X25.2446 Y8.6080
G01 X25.2464 Y8.6151
G01 X25.2484 Y8.6260
G01 X25.2496 Y8.6370
G01 X25.2500 Y8.6480
G01 X25.2498 Y10.1554
G01 X25.2489 Y10.1664
G01 X25.2478 Y10.1736
G01 X25.2455 Y10.1844
G01 X25.2435 Y10.1915
G01 X25.2412 Y10.1985
G01 X25.2371 Y10.2088
G01 X25.2323 Y10.2187
G01 X25.2287 Y10.2251
G01 X25.2226 Y10.2344
G01 X25.2183 Y10.2403
G01 X25.2111 Y10.2487
G01 X25.2061 Y10.2541
G01 X25.1980 Y10.2616
G01 X25.1923 Y10.2663
G01 X25.1833 Y10.2727
G01 X25.1760 Y10.2773
G01 X25.1880 Y10.2835
G01 X25.2116 Y10.2973
G01 X25.2243 Y10.3057
G01 X25.2393 Y10.3177
G01 X25.2636 Y10.3413
G01 X25.2737 Y10.3523
G01 X25.2863 Y10.3689
G01 X25.3044 Y10.3986
G01 X25.3092 Y10.4074
G01 X25.4028 Y10.5009
G01 X25.4124 Y10.5111
G01 X25.4247 Y10.5255
G01 X25.4312 Y10.5343
G01 X25.4474 Y10.5595
G01 X25.4525 Y10.5689
G01 X25.4627 Y10.5906
G01 X25.4722 Y10.6177
G01 X25.4752 Y10.6280
G01 X25.4799 Y10.6497
G01 X25.4819 Y10.6648
G01 X25.4824 Y10.6755
G01 X25.4835 Y10.6857
G01 X25.4839 Y10.6967
G01 X25.4839 Y12.2174
G01 X25.4833 Y12.2368
G01 X25.4810 Y12.2575
G01 X25.4744 Y12.2882
G01 X25.4715 Y12.2993
G01 X25.4664 Y12.3144
G01 X25.4624 Y12.3245
G01 X25.4465 Y12.3559
G01 X25.4393 Y12.3682
G01 X25.4315 Y12.3795
G01 X25.4245 Y12.3886
G01 X25.4143 Y12.3998
G01 X25.4047 Y12.4111
G01 X25.3996 Y12.4165
G01 X25.3942 Y12.4216
G01 X25.3806 Y12.4332
G01 X25.3744 Y12.4377
G01 X25.3617 Y12.4461
G01 X25.3497 Y12.4544
G01 X25.3406 Y12.4599
G01 X25.3279 Y12.4665
G01 X25.3145 Y12.4724
G01 X25.2861 Y12.4826
G01 X25.2753 Y12.4857
G01 X25.2542 Y12.4902
G01 X25.2469 Y12.4912
G01 X25.2146 Y12.4941
G01 X25.1570 Y12.4943
G01 X24.7080 Y12.6803
G01 X24.3643 Y13.0240
G01 X24.1929 Y13.4379
G01 X24.1817 Y13.4612
G01 X24.1768 Y13.4704
G01 X24.1666 Y13.4866
G01 X24.1405 Y13.5197
G01 X24.1326 Y13.5279
G01 X24.1207 Y13.5390
G01 X24.0915 Y13.5615
G01 X24.0797 Y13.5692
G01 X24.0629 Y13.5785
G01 X24.0291 Y13.5929
G01 X24.0146 Y13.5978
G01 X24.0055 Y13.6003
G01 X23.9945 Y13.6026
G01 X23.9613 Y13.6076
G01 X23.9471 Y13.6086
G01 X23.9336 Y13.6088
G01 X23.9260 Y13.6084
G01 X23.8924 Y13.6050
G01 X23.8781 Y13.6025
G01 X23.8679 Y13.6000
G01 X23.8575 Y13.5969
G01 X23.8258 Y13.5853
G01 X23.8125 Y13.5793
G01 X23.7969 Y13.5707
G01 X23.7663 Y13.5497
G01 X23.7554 Y13.5410
G01 X23.7680 Y13.6266
G01 X23.7724 Y13.7160
G01 X23.7724 Y15.2400
G01 X23.7680 Y15.3294
G01 X23.7552 Y15.4164
G01 X23.7620 Y15.4099
G01 X23.7703 Y15.4030
G01 X23.7861 Y15.3918
G01 X23.7985 Y15.3847
G01 X23.8101 Y15.3789
G01 X23.8214 Y15.3728
G01 X23.8312 Y15.3682
G01 X23.8446 Y15.3631
G01 X23.8551 Y15.3597
G01 X23.8864 Y15.3522
G01 X23.9008 Y15.3495
G01 X23.9207 Y15.3476
G01 X23.9316 Y15.3476
G01 X23.9441 Y15.3482
G01 X23.9601 Y15.3484
G01 X23.9742 Y15.3497
G01 X23.9879 Y15.3519
G01 X23.9954 Y15.3536
G01 X24.0280 Y15.3628
G01 X24.0417 Y15.3677
G01 X24.0583 Y15.3752
G01 X24.0896 Y15.3932
G01 X24.1015 Y15.4013
G01 X24.1114 Y15.4089
G01 X24.1196 Y15.4161
G01 X24.1306 Y15.4274
G01 X24.1419 Y15.4381
G01 X24.1513 Y15.4486
G01 X24.1586 Y15.4581
G01 X24.1648 Y15.4670
G01 X24.1806 Y15.4931
G01 X24.1861 Y15.5031
G01 X24.1929 Y15.5181
G01 X24.3643 Y15.9320
G01 X24.7080 Y16.2757
G01 X25.1570 Y16.4617
G01 X25.6430 Y16.4617
G01 X26.0920 Y16.2757
G01 X26.4357 Y15.9320
G01 X26.6217 Y15.4830
G01 X26.6217 Y14.5903
G01 X26.6225 Y14.5762
G01 X26.6246 Y14.5562
G01 X26.6306 Y14.5265
G01 X26.6347 Y14.5119
G01 X26.6399 Y14.4971
G01 X26.6442 Y14.4866
G01 X26.6508 Y14.4738
G01 X26.6552 Y14.4643
G01 X26.6604 Y14.4547
G01 X26.6703 Y14.4392
G01 X26.6770 Y14.4298
G01 X26.6974 Y14.4057
G01 X27.0842 Y14.0186
G01 X27.2161 Y13.7003
G01 X27.2161 Y10.6967
G01 X27.2164 Y10.6834
G01 X27.2180 Y10.6642
G01 X27.2203 Y10.6496
G01 X27.2259 Y10.6237
G01 X27.2280 Y10.6164
G01 X27.2338 Y10.5993
G01 X27.2392 Y10.5862
G01 X27.2453 Y10.5743
G01 X27.2512 Y10.5619
G01 X27.2567 Y10.5525
G01 X27.2669 Y10.5369
G01 X27.2762 Y10.5247
G01 X27.2945 Y10.5037
G01 X27.3934 Y10.4047
G01 X27.4049 Y10.3863
G01 X27.4261 Y10.3590
G01 X27.4362 Y10.3477
G01 X27.4506 Y10.3340
G01 X27.4811 Y10.3107
G01 X27.4938 Y10.3025
G01 X27.5112 Y10.2933
G01 X27.5429 Y10.2799
G01 X27.5496 Y10.2775
G01 X27.5614 Y10.2739
G01 X27.5759 Y10.2705
G01 X27.6102 Y10.2653
G01 X27.6208 Y10.2644
G01 X27.6306 Y10.2641
G01 X31.6023 Y10.2641
G01 X31.9206 Y10.1322
G01 X39.2006 Y2.8521
G01 X39.2108 Y2.8426
G01 X39.2265 Y2.8294
G01 X39.2361 Y2.8225
G01 X39.2451 Y2.8169
G01 X39.2533 Y2.8112
G01 X39.2627 Y2.8056
G01 X39.2839 Y2.7951
G01 X39.2970 Y2.7898
G01 X39.3239 Y2.7808
G01 X39.3494 Y2.7751
G01 X39.3645 Y2.7731
G01 X39.3927 Y2.7711
G01 X40.8901 Y2.7711
G01 X40.9098 Y2.7718
G01 X40.9248 Y2.7733
G01 X40.9364 Y2.7752
G01 X40.9691 Y2.7830
G01 X40.9833 Y2.7872
G01 X40.9959 Y2.7921
G01 X41.0059 Y2.7968
G01 X41.0334 Y2.8115
G01 X41.0456 Y2.8189
G01 X41.0563 Y2.8265
G01 X41.0648 Y2.8336
G01 X41.0875 Y2.8543
G01 X41.0983 Y2.8654
G01 X41.1059 Y2.8745
G01 X41.1127 Y2.8838
G01 X41.1293 Y2.9092
G01 X41.1366 Y2.9219
G01 X41.1414 Y2.9317
G01 X41.1455 Y2.9416
G01 X41.1562 Y2.9727
G01 X41.1594 Y2.9834
G01 X41.1623 Y2.9972
G01 X41.1643 Y3.0119
G01 X41.1667 Y3.0453
G01 X41.1667 Y3.0627
G01 X41.1653 Y3.0771
G01 X41.1588 Y3.1141
G01 X41.1552 Y3.1281
G01 X41.1494 Y3.1446
G01 X41.1351 Y3.1762
G01 X41.1279 Y3.1898
G01 X41.1198 Y3.2026
G01 X41.0953 Y3.2334
G01 X41.0883 Y3.2412
G01 X33.3040 Y11.0258
G01 X33.1953 Y11.2880
G01 X33.1953 Y38.4563
G01 X33.1951 Y38.4636
G01 X33.1938 Y38.4803
G01 X33.1918 Y38.4948
G01 X33.1855 Y38.5247
G01 X33.1834 Y38.5320
G01 X33.1771 Y38.5504
G01 X33.1712 Y38.5643
G01 X33.1662 Y38.5737
G01 X33.1602 Y38.5865
G01 X33.1547 Y38.5959
G01 X33.1445 Y38.6115
G01 X33.1400 Y38.6177
G01 X33.1170 Y38.6447
G01 X32.6711 Y39.0903
G01 X32.6557 Y39.1036
G01 X32.6430 Y39.1129
G01 X32.6199 Y39.1278
G01 X32.6105 Y39.1329
G01 X32.5952 Y39.1404
G01 X32.5818 Y39.1457
G01 X32.5552 Y39.1546
G01 X32.5335 Y39.1595
G01 X32.5184 Y39.1619
G01 X32.5039 Y39.1628
G01 X32.4937 Y39.1639
G01 X32.4827 Y39.1643
G01 X31.5928 Y39.1643
G01 X31.5819 Y39.1639
G01 X31.5615 Y39.1620
G01 X31.5507 Y39.1601
G01 X31.5244 Y39.1545
G01 X31.5135 Y39.1513
G01 X31.4917 Y39.1433
G01 X31.4594 Y39.1274
G01 X31.4501 Y39.1217
G01 X31.4345 Y39.1113
G01 X31.4284 Y39.1066
G01 X31.4180 Y39.0975
G01 X31.4102 Y39.0912
G01 X31.4016 Y39.0833
G01 X31.1581 Y38.8398
G01 X31.1287 Y38.8180
G01 X31.1201 Y38.8104
G01 X31.1082 Y38.7983
G01 X31.0844 Y38.7696
G01 X31.0760 Y38.7575
G01 X31.0675 Y38.7430
G01 X31.0525 Y38.7114
G01 X31.0470 Y38.6977
G01 X31.0423 Y38.6821
G01 X31.0342 Y38.6407
G01 X31.0327 Y38.6256
G01 X31.0324 Y38.6097
G01 X31.0343 Y38.5761
G01 X31.0360 Y38.5618
G01 X31.0386 Y38.5485
G01 X31.0416 Y38.5374
G01 X31.0524 Y38.5044
G01 X31.0552 Y38.4974
G01 X31.0606 Y38.4857
G01 X31.0681 Y38.4724
G01 X31.0857 Y38.4446
G01 X31.0947 Y38.4326
G01 X31.1060 Y38.4200
G01 X31.1368 Y38.3913
G01 X31.1477 Y38.3829
G01 X31.1576 Y38.3763
G01 X31.5090 Y38.0255
G01 X31.6937 Y37.5795
G01 X31.6937 Y37.0965
G01 X31.5089 Y36.6505
G01 X31.1675 Y36.3091
G01 X30.7350 Y36.1300
G01 X30.7117 Y36.1188
G01 X30.7025 Y36.1139
G01 X30.6863 Y36.1037
G01 X30.6532 Y36.0776
G01 X30.6450 Y36.0697
G01 X30.6339 Y36.0578
G01 X30.6135 Y36.0314
G01 X30.6037 Y36.0168
G01 X30.5943 Y35.9998
G01 X30.5804 Y35.9672
G01 X30.5758 Y35.9539
G01 X30.5726 Y35.9426
G01 X30.5703 Y35.9316
G01 X30.5653 Y35.8984
G01 X30.5643 Y35.8842
G01 X30.5641 Y35.8740
G01 X30.5645 Y35.8628
G01 X30.5679 Y35.8295
G01 X30.5704 Y35.8152
G01 X30.5729 Y35.8050
G01 X30.5760 Y35.7946
G01 X30.5876 Y35.7629
G01 X30.5936 Y35.7496
G01 X30.6003 Y35.7373
G01 X30.6043 Y35.7307
G01 X30.6232 Y35.7034
G01 X30.6303 Y35.6944
G01 X30.6362 Y35.6878
G01 X30.5686 Y35.6976
G01 X30.4800 Y35.7020
G01 X30.3914 Y35.6976
G01 X30.3226 Y35.6876
G01 X30.3379 Y35.7046
G01 X30.3444 Y35.7132
G01 X30.3513 Y35.7232
G01 X30.3584 Y35.7356
G01 X30.3642 Y35.7472
G01 X30.3703 Y35.7585
G01 X30.3749 Y35.7683
G01 X30.3800 Y35.7817
G01 X30.3834 Y35.7922
G01 X30.3909 Y35.8235
G01 X30.3936 Y35.8379
G01 X30.3955 Y35.8578
G01 X30.3955 Y35.8687
G01 X30.3949 Y35.8812
G01 X30.3947 Y35.8972
G01 X30.3934 Y35.9113
G01 X30.3912 Y35.9250
G01 X30.3895 Y35.9325
G01 X30.3803 Y35.9651
G01 X30.3754 Y35.9788
G01 X30.3681 Y35.9950
G01 X30.3497 Y36.0271
G01 X30.3417 Y36.0388
G01 X30.3339 Y36.0488
G01 X30.3268 Y36.0568
G01 X30.3154 Y36.0680
G01 X30.3042 Y36.0797
G01 X30.2958 Y36.0872
G01 X30.2849 Y36.0959
G01 X30.2759 Y36.1021
G01 X30.2503 Y36.1176
G01 X30.2402 Y36.1231
G01 X30.2250 Y36.1300
G01 X29.7925 Y36.3091
G01 X29.4511 Y36.6505
G01 X29.2663 Y37.0965
G01 X29.2663 Y37.5795
G01 X29.4511 Y38.0255
G01 X29.8021 Y38.3765
G01 X29.8260 Y38.3939
G01 X29.8344 Y38.4007
G01 X29.8452 Y38.4106
G01 X29.8549 Y38.4212
G01 X29.8756 Y38.4464
G01 X29.8820 Y38.4554
G01 X29.8875 Y38.4640
G01 X29.8945 Y38.4770
G01 X29.9103 Y38.5113
G01 X29.9156 Y38.5266
G01 X29.9193 Y38.5411
G01 X29.9263 Y38.5792
G01 X29.9273 Y38.5905
G01 X29.9277 Y38.6026
G01 X29.9257 Y38.6399
G01 X29.9250 Y38.6471
G01 X29.9234 Y38.6577
G01 X29.9195 Y38.6749
G01 X29.9088 Y38.7081
G01 X29.9033 Y38.7220
G01 X29.8958 Y38.7371
G01 X29.8764 Y38.7682
G01 X29.8676 Y38.7805
G01 X29.8604 Y38.7891
G01 X29.8531 Y38.7969
G01 X29.8289 Y38.8196
G01 X29.8180 Y38.8288
G01 X29.8094 Y38.8351
G01 X29.8024 Y38.8397
G01 X29.4510 Y39.1905
G01 X29.2663 Y39.6365
G01 X29.2663 Y40.1195
G01 X29.4511 Y40.5655
G01 X29.8018 Y40.9162
G01 X29.8292 Y40.9363
G01 X29.8351 Y40.9412
G01 X29.8447 Y40.9502
G01 X29.8521 Y40.9580
G01 X29.8733 Y40.9835
G01 X29.8820 Y40.9954
G01 X29.8911 Y41.0104
G01 X29.9073 Y41.0444
G01 X29.9125 Y41.0573
G01 X29.9158 Y41.0671
G01 X29.9186 Y41.0777
G01 X29.9251 Y41.1116
G01 X29.9271 Y41.1266
G01 X29.9277 Y41.1425
G01 X29.9257 Y41.1800
G01 X29.9246 Y41.1907
G01 X29.9234 Y41.1977
G01 X29.9195 Y41.2149
G01 X29.9088 Y41.2481
G01 X29.9033 Y41.2620
G01 X29.8958 Y41.2771
G01 X29.8764 Y41.3082
G01 X29.8676 Y41.3205
G01 X29.8593 Y41.3303
G01 X29.8541 Y41.3360
G01 X29.8284 Y41.3601
G01 X29.8177 Y41.3691
G01 X29.8094 Y41.3751
G01 X29.8024 Y41.3797
G01 X29.4510 Y41.7305
G01 X29.2663 Y42.1765
G01 X29.2663 Y42.6595
G01 X29.4511 Y43.1055
G01 X29.8018 Y43.4562
G01 X29.8292 Y43.4763
G01 X29.8351 Y43.4812
G01 X29.8447 Y43.4902
G01 X29.8521 Y43.4980
G01 X29.8733 Y43.5235
G01 X29.8820 Y43.5354
G01 X29.8911 Y43.5504
G01 X29.9073 Y43.5844
G01 X29.9125 Y43.5973
G01 X29.9158 Y43.6071
G01 X29.9186 Y43.6177
G01 X29.9251 Y43.6516
G01 X29.9271 Y43.6666
G01 X29.9277 Y43.6825
G01 X29.9257 Y43.7200
G01 X29.9246 Y43.7307
G01 X29.9234 Y43.7377
G01 X29.9195 Y43.7549
G01 X29.9088 Y43.7881
G01 X29.9033 Y43.8020
G01 X29.8958 Y43.8171
G01 X29.8764 Y43.8482
G01 X29.8676 Y43.8605
G01 X29.8593 Y43.8703
G01 X29.8541 Y43.8760
G01 X29.8284 Y43.9001
G01 X29.8177 Y43.9091
G01 X29.8094 Y43.9151
G01 X29.8024 Y43.9197
G01 X29.4510 Y44.2705
G01 X29.2663 Y44.7165
G01 X29.2663 Y45.1995
G01 X29.4511 Y45.6455
G01 X29.7925 Y45.9869
G01 X30.2250 Y46.1660
G01 X30.2483 Y46.1772
G01 X30.2605 Y46.1839
G01 X30.2742 Y46.1927
G01 X30.3000 Y46.2128
G01 X30.3081 Y46.2196
G01 X30.3182 Y46.2295
G01 X30.3258 Y46.2378
G01 X30.3471 Y46.2654
G01 X30.3556 Y46.2780
G01 X30.3623 Y46.2896
G01 X30.3657 Y46.2962
G01 X30.3796 Y46.3288
G01 X30.3842 Y46.3421
G01 X30.3874 Y46.3534
G01 X30.3897 Y46.3644
G01 X30.3947 Y46.3976
G01 X30.3957 Y46.4118
G01 X30.3959 Y46.4220
G01 X30.3955 Y46.4332
G01 X30.3921 Y46.4665
G01 X30.3896 Y46.4808
G01 X30.3871 Y46.4910
G01 X30.3840 Y46.5014
G01 X30.3724 Y46.5331
G01 X30.3664 Y46.5464
G01 X30.3597 Y46.5587
G01 X30.3557 Y46.5653
G01 X30.3368 Y46.5926
G01 X30.3297 Y46.6016
G01 X30.3238 Y46.6082
G01 X30.3914 Y46.5984
G01 X30.4800 Y46.5940
G01 X30.5686 Y46.5984
G01 X30.6374 Y46.6084
G01 X30.6221 Y46.5914
G01 X30.6156 Y46.5828
G01 X30.6088 Y46.5727
G01 X30.6033 Y46.5635
G01 X30.5962 Y46.5492
G01 X30.5901 Y46.5383
G01 X30.5839 Y46.5248
G01 X30.5766 Y46.5039
G01 X30.5681 Y46.4673
G01 X30.5663 Y46.4563
G01 X30.5653 Y46.4473
G01 X30.5645 Y46.4323
G01 X30.5655 Y46.3953
G01 X30.5681 Y46.3747
G01 X30.5715 Y46.3597
G01 X30.5754 Y46.3470
G01 X30.5786 Y46.3344
G01 X30.5820 Y46.3240
G01 X30.5873 Y46.3109
G01 X30.5921 Y46.3006
G01 X30.6101 Y46.2693
G01 X30.6181 Y46.2574
G01 X30.6261 Y46.2472
G01 X30.6332 Y46.2392
G01 X30.6586 Y46.2137
G01 X30.6750 Y46.2003
G01 X30.6839 Y46.1941
G01 X30.7100 Y46.1783
G01 X30.7234 Y46.1711
G01 X30.7350 Y46.1660
G01 X31.1675 Y45.9869
G01 X31.4016 Y45.7528
G01 X31.4118 Y45.7432
G01 X31.4244 Y45.7324
G01 X31.4338 Y45.7253
G01 X31.4461 Y45.7175
G01 X31.4541 Y45.7119
G01 X31.4633 Y45.7064
G01 X31.4835 Y45.6963
G01 X31.4904 Y45.6933
G01 X31.5214 Y45.6824
G01 X31.5319 Y45.6796
G01 X31.5541 Y45.6751
G01 X31.5655 Y45.6737
G01 X31.5937 Y45.6717
G01 X32.2729 Y45.6717
G01 X32.3073 Y45.6574
G01 X32.3321 Y45.6489
G01 X32.3422 Y45.6461
G01 X32.3553 Y45.6431
G01 X32.3662 Y45.6412
G01 X32.3988 Y45.6379
G01 X32.4095 Y45.6376
G01 X32.4209 Y45.6378
G01 X32.4361 Y45.6388
G01 X32.4518 Y45.6415
G01 X32.4672 Y45.6435
G01 X32.4812 Y45.6468
G01 X32.4941 Y45.6505
G01 X32.5042 Y45.6541
G01 X32.5184 Y45.6604
G01 X32.5329 Y45.6663
G01 X32.5424 Y45.6711
G01 X32.5516 Y45.6763
G01 X32.5578 Y45.6800
G01 X32.5668 Y45.6860
G01 X32.5785 Y45.6954
G01 X32.5904 Y45.7042
G01 X32.6010 Y45.7137
G01 X32.6154 Y45.7283
G01 X32.6355 Y45.7536
G01 X32.6437 Y45.7654
G01 X32.6550 Y45.7847
G01 X32.6684 Y45.8143
G01 X32.6737 Y45.8286
G01 X32.6795 Y45.8493
G01 X32.6852 Y45.8818
G01 X32.6867 Y45.8962
G01 X32.6873 Y45.9145
G01 X32.6873 Y51.5874
G01 X32.6867 Y51.6068
G01 X32.6853 Y51.6205
G01 X32.6838 Y51.6310
G01 X32.6760 Y51.6656
G01 X32.6698 Y51.6844
G01 X32.6672 Y51.6912
G01 X32.6628 Y51.7010
G01 X32.6561 Y51.7133
G01 X32.6482 Y51.7290
G01 X32.6427 Y51.7382
G01 X32.6349 Y51.7495
G01 X32.6254 Y51.7615
G01 X32.6177 Y51.7698
G01 X32.6081 Y51.7811
G01 X32.6030 Y51.7865
G01 X32.5976 Y51.7916
G01 X32.5840 Y51.8032
G01 X32.5778 Y51.8077
G01 X32.5651 Y51.8161
G01 X32.5531 Y51.8244
G01 X32.5440 Y51.8299
G01 X32.5313 Y51.8365
G01 X32.5247 Y51.8396
G01 X32.5145 Y51.8437
G01 X32.5037 Y51.8472
G01 X32.4895 Y51.8526
G01 X32.4787 Y51.8557
G01 X32.4576 Y51.8602
G01 X32.4255 Y51.8635
G01 X32.4104 Y51.8643
G01 X31.5928 Y51.8643
G01 X31.5819 Y51.8639
G01 X31.5651 Y51.8624
G01 X31.5507 Y51.8601
G01 X31.5415 Y51.8579
G01 X31.5281 Y51.8554
G01 X31.5171 Y51.8524
G01 X31.4987 Y51.8461
G01 X31.4848 Y51.8402
G01 X31.4594 Y51.8274
G01 X31.4408 Y51.8157
G01 X31.4284 Y51.8066
G01 X31.4180 Y51.7975
G01 X31.4102 Y51.7912
G01 X31.4016 Y51.7833
G01 X31.1578 Y51.5395
G01 X31.1315 Y51.5202
G01 X31.1231 Y51.5131
G01 X31.1148 Y51.5054
G01 X31.1051 Y51.4948
G01 X31.0844 Y51.4696
G01 X31.0780 Y51.4606
G01 X31.0725 Y51.4520
G01 X31.0655 Y51.4390
G01 X31.0526 Y51.4114
G01 X31.0484 Y51.4012
G01 X31.0442 Y51.3889
G01 X31.0406 Y51.3747
G01 X31.0349 Y51.3444
G01 X31.0333 Y51.3332
G01 X31.0325 Y51.3210
G01 X31.0325 Y51.3058
G01 X31.0343 Y51.2761
G01 X31.0354 Y51.2654
G01 X31.0379 Y51.2520
G01 X31.0417 Y51.2371
G01 X31.0524 Y51.2046
G01 X31.0566 Y51.1941
G01 X31.0621 Y51.1828
G01 X31.0676 Y51.1730
G01 X31.0861 Y51.1440
G01 X31.0927 Y51.1351
G01 X31.1044 Y51.1216
G01 X31.1364 Y51.0916
G01 X31.1477 Y51.0829
G01 X31.1576 Y51.0763
G01 X31.5090 Y50.7255
G01 X31.6937 Y50.2795
G01 X31.6937 Y49.7965
G01 X31.5089 Y49.3505
G01 X31.1675 Y49.0091
G01 X30.7350 Y48.8300
G01 X30.7117 Y48.8188
G01 X30.6995 Y48.8121
G01 X30.6858 Y48.8033
G01 X30.6600 Y48.7832
G01 X30.6519 Y48.7764
G01 X30.6416 Y48.7663
G01 X30.6339 Y48.7578
G01 X30.6135 Y48.7314
G01 X30.6037 Y48.7168
G01 X30.5943 Y48.6998
G01 X30.5804 Y48.6672
G01 X30.5758 Y48.6539
G01 X30.5726 Y48.6426
G01 X30.5703 Y48.6316
G01 X30.5653 Y48.5984
G01 X30.5643 Y48.5842
G01 X30.5641 Y48.5740
G01 X30.5645 Y48.5628
G01 X30.5679 Y48.5295
G01 X30.5704 Y48.5152
G01 X30.5729 Y48.5050
G01 X30.5760 Y48.4946
G01 X30.5876 Y48.4629
G01 X30.5936 Y48.4496
G01 X30.6003 Y48.4373
G01 X30.6043 Y48.4307
G01 X30.6232 Y48.4034
G01 X30.6303 Y48.3944
G01 X30.6362 Y48.3878
G01 X30.5686 Y48.3976
G01 X30.4800 Y48.4020
G01 X30.3914 Y48.3976
G01 X30.3226 Y48.3876
G01 X30.3379 Y48.4046
G01 X30.3444 Y48.4132
G01 X30.3499 Y48.4213
G01 X30.3577 Y48.4345
G01 X30.3703 Y48.4585
G01 X30.3749 Y48.4683
G01 X30.3812 Y48.4852
G01 X30.3853 Y48.4994
G01 X30.3926 Y48.5321
G01 X30.3941 Y48.5433
G01 X30.3953 Y48.5561
G01 X30.3955 Y48.5674
G01 X30.3949 Y48.5806
G01 X30.3949 Y48.5937
G01 X30.3942 Y48.6043
G01 X30.3934 Y48.6113
G01 X30.3912 Y48.6250
G01 X30.3895 Y48.6325
G01 X30.3814 Y48.6616
G01 X30.3767 Y48.6755
G01 X30.3712 Y48.6886
G01 X30.3679 Y48.6954
G01 X30.3499 Y48.7267
G01 X30.3418 Y48.7386
G01 X30.3329 Y48.7500
G01 X30.3277 Y48.7558
G01 X30.3042 Y48.7797
G01 X30.2958 Y48.7872
G01 X30.2849 Y48.7959
G01 X30.2759 Y48.8021
G01 X30.2503 Y48.8176
G01 X30.2402 Y48.8231
G01 X30.2250 Y48.8300
G01 X29.7925 Y49.0091
G01 X29.4511 Y49.3505
G01 X29.2663 Y49.7965
G01 X29.2663 Y50.2795
G01 X29.4511 Y50.7255
G01 X29.8018 Y51.0762
G01 X29.8292 Y51.0963
G01 X29.8351 Y51.1012
G01 X29.8447 Y51.1102
G01 X29.8521 Y51.1180
G01 X29.8733 Y51.1435
G01 X29.8820 Y51.1554
G01 X29.8911 Y51.1704
G01 X29.9073 Y51.2044
G01 X29.9125 Y51.2173
G01 X29.9158 Y51.2271
G01 X29.9186 Y51.2377
G01 X29.9251 Y51.2716
G01 X29.9271 Y51.2866
G01 X29.9277 Y51.3025
G01 X29.9257 Y51.3400
G01 X29.9246 Y51.3507
G01 X29.9234 Y51.3577
G01 X29.9195 Y51.3749
G01 X29.9088 Y51.4081
G01 X29.9033 Y51.4220
G01 X29.8958 Y51.4371
G01 X29.8764 Y51.4682
G01 X29.8676 Y51.4805
G01 X29.8593 Y51.4903
G01 X29.8541 Y51.4960
G01 X29.8284 Y51.5201
G01 X29.8177 Y51.5291
G01 X29.8094 Y51.5351
G01 X29.8024 Y51.5397
G01 X29.4510 Y51.8905
G01 X29.2663 Y52.3365
G01 X29.2663 Y52.8195
G01 X29.4511 Y53.2655
G01 X29.8018 Y53.6162
G01 X29.8292 Y53.6363
G01 X29.8351 Y53.6412
G01 X29.8447 Y53.6502
G01 X29.8521 Y53.6580
G01 X29.8733 Y53.6835
G01 X29.8820 Y53.6954
G01 X29.8911 Y53.7104
G01 X29.9073 Y53.7444
G01 X29.9125 Y53.7573
G01 X29.9158 Y53.7671
G01 X29.9186 Y53.7777
G01 X29.9251 Y53.8116
G01 X29.9271 Y53.8266
G01 X29.9277 Y53.8425
G01 X29.9257 Y53.8800
G01 X29.9246 Y53.8907
G01 X29.9234 Y53.8977
G01 X29.9195 Y53.9149
G01 X29.9088 Y53.9481
G01 X29.9033 Y53.9620
G01 X29.8958 Y53.9771
G01 X29.8764 Y54.0082
G01 X29.8676 Y54.0205
G01 X29.8593 Y54.0303
G01 X29.8541 Y54.0360
G01 X29.8284 Y54.0601
G01 X29.8177 Y54.0691
G01 X29.8094 Y54.0751
G01 X29.8024 Y54.0797
G01 X29.4510 Y54.4305
G01 X29.2663 Y54.8765
G01 X29.2663 Y55.3595
G01 X29.4511 Y55.8055
G01 X29.8018 Y56.1562
G01 X29.8292 Y56.1763
G01 X29.8351 Y56.1812
G01 X29.8447 Y56.1902
G01 X29.8521 Y56.1980
G01 X29.8733 Y56.2235
G01 X29.8820 Y56.2354
G01 X29.8911 Y56.2504
G01 X29.9073 Y56.2844
G01 X29.9125 Y56.2973
G01 X29.9158 Y56.3071
G01 X29.9186 Y56.3177
G01 X29.9251 Y56.3516
G01 X29.9271 Y56.3666
G01 X29.9277 Y56.3825
G01 X29.9257 Y56.4200
G01 X29.9246 Y56.4307
G01 X29.9234 Y56.4377
G01 X29.9195 Y56.4549
G01 X29.9088 Y56.4881
G01 X29.9033 Y56.5020
G01 X29.8958 Y56.5171
G01 X29.8764 Y56.5482
G01 X29.8676 Y56.5605
G01 X29.8593 Y56.5703
G01 X29.8541 Y56.5760
G01 X29.8284 Y56.6001
G01 X29.8177 Y56.6091
G01 X29.8094 Y56.6151
G01 X29.8024 Y56.6197
G01 X29.4510 Y56.9705
G01 X29.2663 Y57.4165
G01 X29.2663 Y57.8995
G01 X29.4511 Y58.3455
G01 X29.7925 Y58.6869
G01 X30.2250 Y58.8660
G01 X30.2483 Y58.8772
G01 X30.2605 Y58.8839
G01 X30.2742 Y58.8927
G01 X30.3000 Y58.9128
G01 X30.3081 Y58.9196
G01 X30.3182 Y58.9295
G01 X30.3258 Y58.9378
G01 X30.3471 Y58.9654
G01 X30.3556 Y58.9780
G01 X30.3623 Y58.9896
G01 X30.3657 Y58.9962
G01 X30.3796 Y59.0288
G01 X30.3842 Y59.0421
G01 X30.3874 Y59.0534
G01 X30.3897 Y59.0644
G01 X30.3947 Y59.0976
G01 X30.3957 Y59.1118
G01 X30.3959 Y59.1220
G01 X30.3955 Y59.1332
G01 X30.3921 Y59.1665
G01 X30.3896 Y59.1808
G01 X30.3871 Y59.1910
G01 X30.3840 Y59.2014
G01 X30.3724 Y59.2331
G01 X30.3664 Y59.2464
G01 X30.3597 Y59.2587
G01 X30.3557 Y59.2653
G01 X30.3368 Y59.2926
G01 X30.3297 Y59.3016
G01 X30.3238 Y59.3082
G01 X30.3914 Y59.2984
G01 X30.4800 Y59.2940
G01 X30.5686 Y59.2984
G01 X30.6374 Y59.3084
G01 X30.6221 Y59.2914
G01 X30.6156 Y59.2828
G01 X30.6088 Y59.2727
G01 X30.6033 Y59.2635
G01 X30.5962 Y59.2492
G01 X30.5901 Y59.2383
G01 X30.5839 Y59.2248
G01 X30.5766 Y59.2039
G01 X30.5681 Y59.1673
G01 X30.5663 Y59.1563
G01 X30.5653 Y59.1473
G01 X30.5645 Y59.1323
G01 X30.5655 Y59.0953
G01 X30.5681 Y59.0747
G01 X30.5715 Y59.0597
G01 X30.5754 Y59.0470
G01 X30.5786 Y59.0344
G01 X30.5820 Y59.0240
G01 X30.5873 Y59.0109
G01 X30.5921 Y59.0006
G01 X30.6101 Y58.9693
G01 X30.6181 Y58.9574
G01 X30.6261 Y58.9472
G01 X30.6332 Y58.9392
G01 X30.6586 Y58.9137
G01 X30.6750 Y58.9003
G01 X30.6839 Y58.8941
G01 X30.7100 Y58.8783
G01 X30.7234 Y58.8711
G01 X30.7350 Y58.8660
G01 X31.1675 Y58.6869
G01 X31.4090 Y58.4457
G01 X31.4244 Y58.4324
G01 X31.4306 Y58.4276
G01 X31.4571 Y58.4100
G01 X31.4696 Y58.4031
G01 X31.4835 Y58.3963
G01 X31.4940 Y58.3919
G01 X31.5249 Y58.3814
G01 X31.5466 Y58.3765
G01 X31.5617 Y58.3741
G01 X31.5937 Y58.3717
G01 X32.6540 Y58.3717
G01 X32.9162 Y58.2630
G01 X33.4388 Y57.7404
G01 X33.4493 Y57.7305
G01 X33.4617 Y57.7201
G01 X33.4709 Y57.7131
G01 X33.4990 Y57.6951
G01 X33.5082 Y57.6899
G01 X33.5228 Y57.6829
G01 X33.5328 Y57.6789
G01 X33.5494 Y57.6737
G01 X33.5627 Y57.6690
G01 X33.5772 Y57.6653
G01 X33.5914 Y57.6628
G01 X33.6025 Y57.6614
G01 X33.6175 Y57.6607
G01 X33.6323 Y57.6595
G01 X33.6433 Y57.6595
G01 X33.6576 Y57.6603
G01 X33.6685 Y57.6615
G01 X33.7014 Y57.6677
G01 X33.7122 Y57.6704
G01 X33.7256 Y57.6747
G01 X33.7325 Y57.6772
G01 X33.7426 Y57.6816
G01 X33.7718 Y57.6956
G01 X33.7887 Y57.7061
G01 X33.7974 Y57.7123
G01 X33.8245 Y57.7347
G01 X33.8325 Y57.7424
G01 X33.8404 Y57.7510
G01 X33.8496 Y57.7619
G01 X33.8578 Y57.7737
G01 X33.8646 Y57.7825
G01 X33.8689 Y57.7887
G01 X33.8748 Y57.7984
G01 X33.8820 Y57.8116
G01 X33.8850 Y57.8182
G01 X33.8913 Y57.8346
G01 X33.8968 Y57.8474
G01 X33.9002 Y57.8575
G01 X33.9060 Y57.8807
G01 X33.9106 Y57.9159
G01 X33.9166 Y57.9071
G01 X33.9657 Y57.8412
G01 X34.0258 Y57.7748
G01 X34.0922 Y57.7147
G01 X34.1581 Y57.6656
G01 X34.1666 Y57.6597
G01 X34.1483 Y57.6578
G01 X34.1370 Y57.6559
G01 X34.1042 Y57.6477
G01 X34.0933 Y57.6442
G01 X34.0790 Y57.6386
G01 X34.0692 Y57.6340
G01 X34.0541 Y57.6255
G01 X34.0418 Y57.6191
G01 X34.0296 Y57.6114
G01 X34.0146 Y57.6002
G01 X34.0061 Y57.5926
G01 X33.9847 Y57.5724
G01 X33.9707 Y57.5563
G01 X33.9618 Y57.5442
G01 X33.9540 Y57.5314
G01 X33.9457 Y57.5188
G01 X33.9401 Y57.5087
G01 X33.9339 Y57.4956
G01 X33.9287 Y57.4824
G01 X33.9245 Y57.4685
G01 X33.9198 Y57.4545
G01 X33.9170 Y57.4440
G01 X33.9138 Y57.4271
G01 X33.9124 Y57.4160
G01 X33.9104 Y57.3823
G01 X33.9106 Y57.3714
G01 X33.9120 Y57.3536
G01 X33.9137 Y57.3427
G01 X33.9194 Y57.3140
G01 X33.9221 Y57.3038
G01 X33.9283 Y57.2855
G01 X33.9329 Y57.2749
G01 X33.9466 Y57.2466
G01 X33.9571 Y57.2297
G01 X33.9655 Y57.2182
G01 X33.9745 Y57.2078
G01 X33.9835 Y57.1964
G01 X33.9914 Y57.1878
G01 X36.9270 Y54.2522
G01 X37.0357 Y53.9900
G01 X37.0357 Y48.2847
G01 X37.0361 Y48.2738
G01 X37.0380 Y48.2534
G01 X37.0438 Y48.2237
G01 X37.0465 Y48.2127
G01 X37.0539 Y48.1906
G01 X37.0598 Y48.1767
G01 X37.0726 Y48.1513
G01 X37.0843 Y48.1327
G01 X37.0934 Y48.1203
G01 X37.1025 Y48.1099
G01 X37.1114 Y48.0992
G01 X37.8065 Y47.4037
G01 X37.8167 Y47.3942
G01 X37.8324 Y47.3810
G01 X37.8420 Y47.3741
G01 X37.8510 Y47.3685
G01 X37.8620 Y47.3610
G01 X37.8745 Y47.3541
G01 X37.8931 Y47.3451
G01 X37.9032 Y47.3413
G01 X37.9298 Y47.3324
G01 X37.9515 Y47.3275
G01 X37.9628 Y47.3255
G01 X37.9913 Y47.3231
G01 X38.0023 Y47.3227
G01 X49.2910 Y47.3227
G01 X49.5532 Y47.2140
G01 X50.4331 Y46.3343
G01 X50.4405 Y46.3274
G01 X50.4531 Y46.3166
G01 X50.4625 Y46.3095
G01 X50.4889 Y46.2924
G01 X50.5104 Y46.2813
G01 X50.5202 Y46.2770
G01 X50.5270 Y46.2745
G01 X50.5370 Y46.2714
G01 X50.5501 Y46.2666
G01 X50.5606 Y46.2638
G01 X50.5791 Y46.2599
G01 X50.5866 Y46.2587
G01 X50.6224 Y46.2559
G01 X51.8964 Y46.2559
G01 X52.3734 Y46.0582
G01 X52.7384 Y45.6932
G01 X52.9361 Y45.2162
G01 X52.9361 Y44.6998
G01 X52.7384 Y44.2228
G01 X52.3994 Y43.8839
G01 X52.3872 Y43.8707
G01 X52.3757 Y43.8567
G01 X52.3692 Y43.8476
G01 X52.3620 Y43.8356
G01 X52.3543 Y43.8240
G01 X52.3472 Y43.8111
G01 X52.3388 Y43.7920
G01 X52.3288 Y43.7622
G01 X52.3250 Y43.7483
G01 X52.3211 Y43.7264
G01 X52.3186 Y43.6917
G01 X52.3186 Y43.6767
G01 X52.3193 Y43.6643
G01 X52.3207 Y43.6530
G01 X52.3242 Y43.6359
G01 X52.3264 Y43.6225
G01 X52.3291 Y43.6118
G01 X52.3349 Y43.5936
G01 X52.3391 Y43.5834
G01 X52.3538 Y43.5527
G01 X52.3649 Y43.5345
G01 X52.3731 Y43.5231
G01 X52.3825 Y43.5122
G01 X52.3918 Y43.5005
G01 X52.3994 Y43.4922
G01 X52.7384 Y43.1532
G01 X52.9361 Y42.6762
G01 X52.9361 Y42.1598
G01 X52.7384 Y41.6828
G01 X52.3994 Y41.3439
G01 X52.3872 Y41.3307
G01 X52.3757 Y41.3167
G01 X52.3692 Y41.3076
G01 X52.3620 Y41.2956
G01 X52.3543 Y41.2840
G01 X52.3472 Y41.2711
G01 X52.3388 Y41.2520
G01 X52.3288 Y41.2222
G01 X52.3250 Y41.2083
G01 X52.3211 Y41.1864
G01 X52.3186 Y41.1517
G01 X52.3184 Y41.1405
G01 X52.3197 Y41.1205
G01 X52.3213 Y41.1093
G01 X52.3242 Y41.0959
G01 X52.3272 Y41.0789
G01 X52.3301 Y41.0682
G01 X52.3337 Y41.0571
G01 X52.3391 Y41.0434
G01 X52.3538 Y41.0127
G01 X52.3649 Y40.9945
G01 X52.3731 Y40.9831
G01 X52.3825 Y40.9722
G01 X52.3918 Y40.9605
G01 X52.3994 Y40.9522
G01 X52.7384 Y40.6132
G01 X52.9361 Y40.1362
G01 X52.9361 Y39.6198
G01 X52.7384 Y39.1428
G01 X52.3994 Y38.8039
G01 X52.3872 Y38.7907
G01 X52.3757 Y38.7767
G01 X52.3692 Y38.7676
G01 X52.3620 Y38.7556
G01 X52.3543 Y38.7440
G01 X52.3472 Y38.7311
G01 X52.3388 Y38.7120
G01 X52.3288 Y38.6822
G01 X52.3250 Y38.6683
G01 X52.3211 Y38.6464
G01 X52.3186 Y38.6117
G01 X52.3184 Y38.6005
G01 X52.3197 Y38.5805
G01 X52.3213 Y38.5693
G01 X52.3242 Y38.5559
G01 X52.3272 Y38.5389
G01 X52.3301 Y38.5282
G01 X52.3337 Y38.5171
G01 X52.3391 Y38.5034
G01 X52.3538 Y38.4727
G01 X52.3649 Y38.4545
G01 X52.3731 Y38.4431
G01 X52.3825 Y38.4322
G01 X52.3918 Y38.4205
G01 X52.3994 Y38.4122
G01 X52.7384 Y38.0732
G01 X52.9361 Y37.5962
G01 X52.9361 Y37.0798
G01 X52.7384 Y36.6028
G01 X52.3994 Y36.2639
G01 X52.3872 Y36.2507
G01 X52.3757 Y36.2367
G01 X52.3692 Y36.2276
G01 X52.3620 Y36.2156
G01 X52.3543 Y36.2040
G01 X52.3472 Y36.1911
G01 X52.3388 Y36.1720
G01 X52.3288 Y36.1422
G01 X52.3250 Y36.1283
G01 X52.3211 Y36.1064
G01 X52.3186 Y36.0717
G01 X52.3184 Y36.0605
G01 X52.3197 Y36.0405
G01 X52.3213 Y36.0293
G01 X52.3242 Y36.0159
G01 X52.3272 Y35.9989
G01 X52.3301 Y35.9882
G01 X52.3337 Y35.9771
G01 X52.3391 Y35.9634
G01 X52.3538 Y35.9327
G01 X52.3649 Y35.9145
G01 X52.3731 Y35.9031
G01 X52.3825 Y35.8922
G01 X52.3918 Y35.8805
G01 X52.3994 Y35.8722
G01 X52.7384 Y35.5332
G01 X52.9361 Y35.0562
G01 X52.9361 Y34.5398
G01 X52.7384 Y34.0628
G01 X52.3994 Y33.7239
G01 X52.3872 Y33.7107
G01 X52.3757 Y33.6967
G01 X52.3692 Y33.6876
G01 X52.3620 Y33.6756
G01 X52.3543 Y33.6640
G01 X52.3472 Y33.6511
G01 X52.3388 Y33.6320
G01 X52.3288 Y33.6022
G01 X52.3250 Y33.5883
G01 X52.3211 Y33.5664
G01 X52.3186 Y33.5317
G01 X52.3184 Y33.5205
G01 X52.3197 Y33.5005
G01 X52.3213 Y33.4893
G01 X52.3242 Y33.4759
G01 X52.3272 Y33.4589
G01 X52.3301 Y33.4482
G01 X52.3337 Y33.4371
G01 X52.3391 Y33.4234
G01 X52.3538 Y33.3927
G01 X52.3649 Y33.3745
G01 X52.3731 Y33.3631
G01 X52.3825 Y33.3522
G01 X52.3918 Y33.3405
G01 X52.3994 Y33.3322
G01 X52.7384 Y32.9932
G01 X52.9361 Y32.5162
G01 X52.9361 Y31.9998
G01 X52.7384 Y31.5228
G01 X52.3994 Y31.1838
G01 X52.3872 Y31.1707
G01 X52.3757 Y31.1567
G01 X52.3692 Y31.1476
G01 X52.3620 Y31.1356
G01 X52.3563 Y31.1271
G01 X52.3486 Y31.1138
G01 X52.3427 Y31.1014
G01 X52.3385 Y31.0912
G01 X52.3290 Y31.0626
G01 X52.3251 Y31.0485
G01 X52.3211 Y31.0264
G01 X52.3186 Y30.9917
G01 X52.3184 Y30.9805
G01 X52.3197 Y30.9605
G01 X52.3213 Y30.9493
G01 X52.3242 Y30.9359
G01 X52.3272 Y30.9189
G01 X52.3301 Y30.9082
G01 X52.3337 Y30.8971
G01 X52.3391 Y30.8834
G01 X52.3538 Y30.8527
G01 X52.3649 Y30.8345
G01 X52.3731 Y30.8231
G01 X52.3822 Y30.8125
G01 X52.3915 Y30.8007
G01 X52.3994 Y30.7921
G01 X52.7384 Y30.4532
G01 X52.9361 Y29.9762
G01 X52.9361 Y29.4598
G01 X52.7384 Y28.9828
G01 X52.3994 Y28.6439
G01 X52.3872 Y28.6307
G01 X52.3757 Y28.6167
G01 X52.3692 Y28.6076
G01 X52.3506 Y28.5776
G01 X52.3417 Y28.5591
G01 X52.3362 Y28.5448
G01 X52.3268 Y28.5153
G01 X52.3250 Y28.5083
G01 X52.3222 Y28.4938
G01 X52.3203 Y28.4790
G01 X52.3184 Y28.4442
G01 X52.3193 Y28.4243
G01 X52.3213 Y28.4093
G01 X52.3242 Y28.3959
G01 X52.3272 Y28.3789
G01 X52.3301 Y28.3682
G01 X52.3337 Y28.3571
G01 X52.3391 Y28.3434
G01 X52.3538 Y28.3127
G01 X52.3649 Y28.2945
G01 X52.3731 Y28.2831
G01 X52.3825 Y28.2722
G01 X52.3918 Y28.2605
G01 X52.3994 Y28.2522
G01 X52.7384 Y27.9132
G01 X52.9361 Y27.4362
G01 X52.9361 Y26.9198
G01 X52.7384 Y26.4428
G01 X52.3734 Y26.0778
G01 X51.8964 Y25.8801
G01 X49.7036 Y25.8801
G01 X49.4579 Y25.9819
G01 X49.4491 Y25.9852
G01 X49.4270 Y25.9926
G01 X49.4126 Y25.9962
G01 X49.4019 Y25.9982
G01 X49.3708 Y26.0020
G01 X49.3596 Y26.0029
G01 X49.3438 Y26.0028
G01 X49.3323 Y26.0021
G01 X49.2942 Y25.9968
G01 X49.2778 Y25.9928
G01 X49.2675 Y25.9897
G01 X49.2357 Y25.9770
G01 X49.2253 Y25.9723
G01 X49.2124 Y25.9652
G01 X49.2033 Y25.9596
G01 X49.1747 Y25.9385
G01 X49.1662 Y25.9314
G01 X49.1561 Y25.9219
G01 X48.6641 Y25.4298
G01 X48.6456 Y25.4086
G01 X48.6332 Y25.3916
G01 X48.6254 Y25.3789
G01 X48.6200 Y25.3681
G01 X48.6140 Y25.3576
G01 X48.6091 Y25.3474
G01 X48.5999 Y25.3230
G01 X48.5911 Y25.2885
G01 X48.5892 Y25.2779
G01 X48.5874 Y25.2625
G01 X48.5866 Y25.2477
G01 X48.5872 Y25.2140
G01 X48.5896 Y25.1940
G01 X48.5909 Y25.1865
G01 X48.5926 Y25.1790
G01 X48.5962 Y25.1665
G01 X48.6000 Y25.1509
G01 X48.6035 Y25.1408
G01 X48.6094 Y25.1263
G01 X48.6159 Y25.1129
G01 X48.6222 Y25.1022
G01 X48.6283 Y25.0909
G01 X48.6366 Y25.0780
G01 X48.6503 Y25.0600
G01 X48.6757 Y25.0333
G01 X48.6810 Y25.0285
G01 X48.6919 Y25.0196
G01 X48.7038 Y25.0108
G01 X48.7174 Y25.0027
G01 X48.7304 Y24.9943
G01 X48.7401 Y24.9891
G01 X48.7504 Y24.9843
G01 X49.0452 Y24.8620
G01 X50.4303 Y23.4769
G01 X50.4405 Y23.4674
G01 X50.4531 Y23.4566
G01 X50.4658 Y23.4473
G01 X50.4889 Y23.4324
G01 X50.5104 Y23.4213
G01 X50.5236 Y23.4157
G01 X50.5370 Y23.4114
G01 X50.5467 Y23.4077
G01 X50.5606 Y23.4038
G01 X50.5828 Y23.3993
G01 X50.5942 Y23.3979
G01 X50.6224 Y23.3959
G01 X51.8964 Y23.3959
G01 X52.3734 Y23.1982
G01 X52.7384 Y22.8332
G01 X52.9361 Y22.3562
G01 X52.9361 Y21.8398
G01 X52.7384 Y21.3628
G01 X52.3994 Y21.0239
G01 X52.3872 Y21.0107
G01 X52.3757 Y20.9967
G01 X52.3692 Y20.9876
G01 X52.3506 Y20.9576
G01 X52.3417 Y20.9391
G01 X52.3362 Y20.9248
G01 X52.3268 Y20.8953
G01 X52.3250 Y20.8883
G01 X52.3222 Y20.8738
G01 X52.3203 Y20.8590
G01 X52.3184 Y20.8242
G01 X52.3193 Y20.8043
G01 X52.3213 Y20.7893
G01 X52.3242 Y20.7759
G01 X52.3272 Y20.7589
G01 X52.3301 Y20.7482
G01 X52.3337 Y20.7371
G01 X52.3391 Y20.7234
G01 X52.3538 Y20.6927
G01 X52.3649 Y20.6745
G01 X52.3731 Y20.6631
G01 X52.3825 Y20.6522
G01 X52.3918 Y20.6405
G01 X52.3994 Y20.6322
G01 X52.7384 Y20.2932
G01 X52.9361 Y19.8162
G01 X52.9361 Y19.2998
G01 X52.7384 Y18.8228
G01 X52.3994 Y18.4839
G01 X52.3872 Y18.4707
G01 X52.3757 Y18.4567
G01 X52.3692 Y18.4476
G01 X52.3506 Y18.4176
G01 X52.3417 Y18.3991
G01 X52.3362 Y18.3848
G01 X52.3268 Y18.3553
G01 X52.3250 Y18.3483
G01 X52.3222 Y18.3338
G01 X52.3203 Y18.3190
G01 X52.3184 Y18.2842
G01 X52.3193 Y18.2643
G01 X52.3213 Y18.2493
G01 X52.3242 Y18.2359
G01 X52.3272 Y18.2189
G01 X52.3301 Y18.2082
G01 X52.3337 Y18.1971
G01 X52.3391 Y18.1834
G01 X52.3538 Y18.1527
G01 X52.3649 Y18.1345
G01 X52.3731 Y18.1231
G01 X52.3825 Y18.1122
G01 X52.3918 Y18.1005
G01 X52.3994 Y18.0922
G01 X52.7384 Y17.7532
G01 X52.9361 Y17.2762
G01 X52.9361 Y16.7598
G01 X52.7384 Y16.2828
G01 X52.3994 Y15.9439
G01 X52.3872 Y15.9307
G01 X52.3757 Y15.9167
G01 X52.3692 Y15.9076
G01 X52.3506 Y15.8776
G01 X52.3417 Y15.8591
G01 X52.3362 Y15.8448
G01 X52.3268 Y15.8153
G01 X52.3250 Y15.8083
G01 X52.3222 Y15.7938
G01 X52.3203 Y15.7790
G01 X52.3184 Y15.7442
G01 X52.3193 Y15.7243
G01 X52.3213 Y15.7093
G01 X52.3242 Y15.6959
G01 X52.3272 Y15.6789
G01 X52.3301 Y15.6682
G01 X52.3337 Y15.6571
G01 X52.3391 Y15.6434
G01 X52.3538 Y15.6127
G01 X52.3649 Y15.5945
G01 X52.3731 Y15.5831
G01 X52.3825 Y15.5722
G01 X52.3918 Y15.5605
G01 X52.3994 Y15.5522
G01 X52.7384 Y15.2132
G01 X52.9361 Y14.7362
G01 X52.9361 Y14.2198
G01 X52.7384 Y13.7428
G01 X52.3994 Y13.4039
G01 X52.3872 Y13.3907
G01 X52.3757 Y13.3767
G01 X52.3692 Y13.3676
G01 X52.3506 Y13.3376
G01 X52.3417 Y13.3191
G01 X52.3362 Y13.3048
G01 X52.3268 Y13.2753
G01 X52.3250 Y13.2683
G01 X52.3222 Y13.2538
G01 X52.3203 Y13.2390
G01 X52.3184 Y13.2042
G01 X52.3193 Y13.1843
G01 X52.3213 Y13.1693
G01 X52.3242 Y13.1559
G01 X52.3272 Y13.1389
G01 X52.3301 Y13.1282
G01 X52.3337 Y13.1171
G01 X52.3391 Y13.1034
G01 X52.3538 Y13.0727
G01 X52.3649 Y13.0545
G01 X52.3731 Y13.0431
G01 X52.3825 Y13.0322
G01 X52.3918 Y13.0205
G01 X52.3994 Y13.0122
G01 X52.7384 Y12.6732
G01 X52.9361 Y12.1962
G01 X52.9361 Y11.6798
G01 X52.7384 Y11.2028
G01 X52.3994 Y10.8639
G01 X52.3872 Y10.8507
G01 X52.3757 Y10.8367
G01 X52.3692 Y10.8276
G01 X52.3506 Y10.7976
G01 X52.3417 Y10.7791
G01 X52.3362 Y10.7648
G01 X52.3268 Y10.7353
G01 X52.3250 Y10.7283
G01 X52.3222 Y10.7138
G01 X52.3203 Y10.6990
G01 X52.3184 Y10.6642
G01 X52.3193 Y10.6443
G01 X52.3213 Y10.6293
G01 X52.3242 Y10.6159
G01 X52.3272 Y10.5989
G01 X52.3301 Y10.5882
G01 X52.3337 Y10.5771
G01 X52.3391 Y10.5634
G01 X52.3538 Y10.5327
G01 X52.3649 Y10.5145
G01 X52.3731 Y10.5031
G01 X52.3825 Y10.4922
G01 X52.3918 Y10.4805
G01 X52.3994 Y10.4722
G01 X52.7384 Y10.1332
G01 X52.9361 Y9.6562
G01 X52.9361 Y9.1398
G01 X52.7384 Y8.6628
G01 X52.3994 Y8.3239
G01 X52.3872 Y8.3107
G01 X52.3757 Y8.2967
G01 X52.3692 Y8.2876
G01 X52.3506 Y8.2576
G01 X52.3417 Y8.2391
G01 X52.3362 Y8.2248
G01 X52.3268 Y8.1953
G01 X52.3250 Y8.1883
G01 X52.3222 Y8.1738
G01 X52.3203 Y8.1590
G01 X52.3184 Y8.1242
G01 X52.3193 Y8.1043
G01 X52.3213 Y8.0893
G01 X52.3242 Y8.0759
G01 X52.3272 Y8.0589
G01 X52.3301 Y8.0482
G01 X52.3337 Y8.0371
G01 X52.3391 Y8.0234
G01 X52.3538 Y7.9927
G01 X52.3649 Y7.9745
G01 X52.3731 Y7.9631
G01 X52.3825 Y7.9522
G01 X52.3918 Y7.9405
G01 X52.3994 Y7.9322
G01 X52.7384 Y7.5932
G01 X52.9361 Y7.1162
G01 X52.9361 Y6.5998
G01 X52.7384 Y6.1228
G01 X52.3994 Y5.7839
G01 X52.3872 Y5.7707
G01 X52.3757 Y5.7567
G01 X52.3692 Y5.7476
G01 X52.3506 Y5.7176
G01 X52.3417 Y5.6991
G01 X52.3362 Y5.6848
G01 X52.3268 Y5.6553
G01 X52.3250 Y5.6483
G01 X52.3222 Y5.6338
G01 X52.3203 Y5.6190
G01 X52.3184 Y5.5842
G01 X52.3193 Y5.5643
G01 X52.3213 Y5.5493
G01 X52.3242 Y5.5359
G01 X52.3272 Y5.5189
G01 X52.3301 Y5.5082
G01 X52.3337 Y5.4971
G01 X52.3391 Y5.4834
G01 X52.3538 Y5.4527
G01 X52.3649 Y5.4345
G01 X52.3731 Y5.4231
G01 X52.3825 Y5.4122
G01 X52.3918 Y5.4005
G01 X52.3994 Y5.3922
G01 X52.7384 Y5.0532
G01 X52.9361 Y4.5762
G01 X52.9361 Y4.0598
G01 X52.7384 Y3.5828
G01 X52.3994 Y3.2438
G01 X52.3829 Y3.2257
G01 X52.3736 Y3.2139
G01 X52.3673 Y3.2045
G01 X52.3519 Y3.1793
G01 X52.3468 Y3.1700
G01 X52.3437 Y3.1636
G01 X52.3370 Y3.1473
G01 X52.3250 Y3.1077
G01 X52.3221 Y3.0934
G01 X52.3207 Y3.0827
G01 X52.3187 Y3.0459
G01 X52.3187 Y3.0348
G01 X52.3193 Y3.0245
G01 X52.3206 Y3.0135
G01 X52.3219 Y3.0062
G01 X52.3289 Y2.9732
G01 X52.3308 Y2.9660
G01 X52.3348 Y2.9540
G01 X52.3405 Y2.9403
G01 X52.3561 Y2.9088
G01 X52.3637 Y2.8963
G01 X52.3735 Y2.8826
G01 X52.3968 Y2.8552
G01 X52.4043 Y2.8474
G01 X52.4127 Y2.8397
G01 X52.4242 Y2.8306
G01 X52.4530 Y2.8107
G01 X52.4593 Y2.8068
G01 X52.4709 Y2.8006
G01 X52.4837 Y2.7949
G01 X52.5157 Y2.7830
G01 X52.5229 Y2.7807
G01 X52.5357 Y2.7776
G01 X52.5500 Y2.7751
G01 X52.5806 Y2.7718
G01 X52.5916 Y2.7711
G01 X60.6255 Y2.7713
G01 X60.6422 Y2.7726
G01 X60.6531 Y2.7740
G01 X60.6829 Y2.7800
G01 X60.6975 Y2.7841
G01 X60.7193 Y2.7921
G01 X60.7451 Y2.8046
G01 X60.7578 Y2.8117
G01 X60.7734 Y2.8219
G01 X60.7796 Y2.8264
G01 X60.8008 Y2.8442
G01 X60.8094 Y2.8521
G01 X61.3434 Y3.3861
G01 X61.3564 Y3.4002
G01 X61.3685 Y3.4151
G01 X61.3729 Y3.4214
G01 X61.3806 Y3.4340
G01 X61.3885 Y3.4459
G01 X61.3956 Y3.4588
G01 X61.4009 Y3.4701
G01 X61.4049 Y3.4799
G01 X61.4150 Y3.5112
G01 X61.4185 Y3.5252
G01 X61.4221 Y3.5464
G01 X61.4243 Y3.5793
G01 X61.4242 Y3.5938
G01 X61.4235 Y3.6051
G01 X61.4223 Y3.6161
G01 X61.4161 Y3.6487
G01 X61.4123 Y3.6631
G01 X61.4053 Y3.6830
G01 X61.3896 Y3.7164
G01 X61.3797 Y3.7330
G01 X61.3737 Y3.7418
G01 X61.3693 Y3.7475
G01 X61.3485 Y3.7723
G01 X56.5837 Y8.5376
G01 X56.4363 Y8.8932
G01 X56.4363 Y67.2485
G01 X56.5837 Y67.6041
G01 X62.8231 Y73.8436
G01 X62.8397 Y73.8617
G01 X62.8468 Y73.8705
G01 X62.8533 Y73.8797
G01 X62.8742 Y73.9142
G01 X62.8789 Y73.9238
G01 X62.8843 Y73.9366
G01 X62.8967 Y73.9762
G01 X62.8992 Y73.9867
G01 X62.9011 Y73.9976
G01 X62.9025 Y74.0118
G01 X62.9038 Y74.0424
G01 X62.9036 Y74.0567
G01 X62.9029 Y74.0660
G01 X62.9015 Y74.0767
G01 X62.8937 Y74.1142
G01 X62.8918 Y74.1214
G01 X62.8877 Y74.1336
G01 X62.8819 Y74.1475
G01 X62.8667 Y74.1782
G01 X62.8611 Y74.1879
G01 X62.8555 Y74.1962
G01 X62.8469 Y74.2075
G01 X62.8274 Y74.2303
G01 X62.8169 Y74.2413
G01 X62.8096 Y74.2479
G01 X62.8009 Y74.2549
G01 X62.7732 Y74.2743
G01 X62.7603 Y74.2823
G01 X62.7496 Y74.2878
G01 X62.7426 Y74.2909
G01 X62.7068 Y74.3044
G01 X62.6898 Y74.3092
G01 X62.6794 Y74.3113
G01 X62.6724 Y74.3123
G01 X62.6421 Y74.3156
G01 X62.6310 Y74.3163
G01 X58.2797 Y74.3163
G01 X58.2648 Y74.3159
G01 X58.2473 Y74.3144
G01 X58.2365 Y74.3128
G01 X58.2237 Y74.3099
G01 X58.2111 Y74.3076
G01 X58.2008 Y74.3049
G01 X58.1812 Y74.2983
G01 X58.1706 Y74.2939
G01 X58.1445 Y74.2810
G01 X58.1353 Y74.2756
G01 X58.1142 Y74.2614
G01 X58.0892 Y74.2402
G01 X58.0046 Y74.1560
G01 X57.5066 Y73.9496
G01 X56.9674 Y73.9496
G01 X56.4695 Y74.1560
G01 X56.0883 Y74.5371
G01 X55.8820 Y75.0351
G01 X55.8820 Y77.3649
G01 X56.0883 Y77.8629
G01 X56.4695 Y78.2440
G01 X56.9674 Y78.4504
G01 X57.5066 Y78.4504
G01 X58.0045 Y78.2440
G01 X58.3857 Y77.8629
G01 X58.5920 Y77.3649
G01 X58.5920 Y76.5253
G01 X58.5927 Y76.5093
G01 X58.5947 Y76.4897
G01 X58.5969 Y76.4784
G01 X58.6047 Y76.4460
G01 X58.6113 Y76.4270
G01 X58.6159 Y76.4164
G01 X58.6315 Y76.3862
G01 X58.6355 Y76.3796
G01 X58.6438 Y76.3674
G01 X58.6524 Y76.3563
G01 X58.6738 Y76.3322
G01 X58.6791 Y76.3270
G01 X58.6899 Y76.3173
G01 X58.6986 Y76.3103
G01 X58.7264 Y76.2914
G01 X58.7392 Y76.2840
G01 X58.7488 Y76.2791
G01 X58.7584 Y76.2748
G01 X58.7867 Y76.2645
G01 X58.8007 Y76.2603
G01 X58.8222 Y76.2557
G01 X58.8538 Y76.2525
G01 X58.8651 Y76.2517
G01 X71.7537 Y76.2517
G01 X71.7679 Y76.2521
G01 X71.7857 Y76.2535
G01 X71.7964 Y76.2551
G01 X71.8112 Y76.2585
G01 X71.8233 Y76.2607
G01 X71.8378 Y76.2648
G01 X71.8506 Y76.2692
G01 X71.8606 Y76.2731
G01 X71.8900 Y76.2876
G01 X71.8993 Y76.2930
G01 X71.9133 Y76.3023
G01 X71.9247 Y76.3110
G01 X71.9492 Y76.3324
G01 X71.9672 Y76.3522
G01 X71.9739 Y76.3609
G01 X71.9803 Y76.3707
G01 X71.9875 Y76.3804
G01 X71.9936 Y76.3901
G01 X72.3687 Y77.0399
G01 X72.9011 Y77.5723
G01 X73.5532 Y77.9488
G01 X74.2805 Y78.1437
G01 X75.0335 Y78.1437
G01 X75.7608 Y77.9488
G01 X76.4129 Y77.5723
G01 X76.9453 Y77.0399
G01 X77.3218 Y76.3878
G01 X77.5167 Y75.6605
G01 X77.5167 Y75.5945
G01 X77.5171 Y75.5840
G01 X77.5184 Y75.5659
G01 X77.5193 Y75.5583
G01 X77.5244 Y75.5319
G01 X77.5260 Y75.5249
G01 X77.5292 Y75.5145
G01 X77.5366 Y75.4932
G01 X77.5409 Y75.4834
G01 X77.5528 Y75.4596
G01 X77.5658 Y75.4390
G01 X77.5702 Y75.4327
G01 X77.5907 Y75.4079
G01 X77.5984 Y75.3999
G01 X77.6171 Y75.3830
G01 X77.6413 Y75.3652
G01 X77.6502 Y75.3594
G01 X77.6564 Y75.3559
G01 X77.6722 Y75.3475
G01 X77.6826 Y75.3427
G01 X77.7116 Y75.3318
G01 X77.7348 Y75.3258
G01 X77.7423 Y75.3242
G01 X77.7499 Y75.3229
G01 X77.7763 Y75.3200
G01 X77.7871 Y75.3196
G01 X77.8074 Y75.3198
G01 X77.8181 Y75.3206
G01 X77.8457 Y75.3244
G01 X77.8529 Y75.3259
G01 X77.8707 Y75.3304
G01 X77.8775 Y75.3324
G01 X77.8875 Y75.3359
G01 X77.9087 Y75.3446
G01 X77.9185 Y75.3493
G01 X77.9348 Y75.3582
G01 X77.9447 Y75.3643
G01 X77.9714 Y75.3841
G01 X77.9881 Y75.3994
G01 X77.9961 Y75.4074
G01 X78.0139 Y75.4288
G01 X78.0070 Y75.2840
G01 X78.0139 Y75.1393
G01 X78.0028 Y75.1529
G01 X77.9953 Y75.1614
G01 X77.9775 Y75.1785
G01 X77.9687 Y75.1861
G01 X77.9503 Y75.1999
G01 X77.9410 Y75.2061
G01 X77.9186 Y75.2187
G01 X77.9084 Y75.2237
G01 X77.8886 Y75.2317
G01 X77.8779 Y75.2354
G01 X77.8543 Y75.2418
G01 X77.8437 Y75.2441
G01 X77.8218 Y75.2470
G01 X77.8110 Y75.2480
G01 X77.7831 Y75.2483
G01 X77.7688 Y75.2474
G01 X77.7520 Y75.2453
G01 X77.7412 Y75.2435
G01 X77.7164 Y75.2375
G01 X77.7024 Y75.2331
G01 X77.6830 Y75.2255
G01 X77.6726 Y75.2207
G01 X77.6511 Y75.2091
G01 X77.6384 Y75.2009
G01 X77.6230 Y75.1898
G01 X77.6148 Y75.1830
G01 X77.5963 Y75.1659
G01 X77.5861 Y75.1550
G01 X77.5718 Y75.1375
G01 X77.5566 Y75.1145
G01 X77.5495 Y75.1024
G01 X77.5404 Y75.0836
G01 X77.5346 Y75.0696
G01 X77.5263 Y75.0437
G01 X77.5237 Y75.0330
G01 X77.5192 Y75.0087
G01 X77.5167 Y74.9755
G01 X77.5167 Y74.9075
G01 X77.3218 Y74.1802
G01 X77.1348 Y73.8563
G01 X77.1259 Y73.8391
G01 X77.1193 Y73.8240
G01 X77.1156 Y73.8131
G01 X77.1059 Y73.7803
G01 X77.1026 Y73.7635
G01 X77.1012 Y73.7524
G01 X77.0996 Y73.7192
G01 X77.0999 Y73.7016
G01 X77.1012 Y73.6882
G01 X77.1024 Y73.6807
G01 X77.1098 Y73.6457
G01 X77.1129 Y73.6349
G01 X77.1170 Y73.6231
G01 X77.1211 Y73.6133
G01 X77.1352 Y73.5849
G01 X77.1403 Y73.5756
G01 X77.1472 Y73.5649
G01 X77.1537 Y73.5558
G01 X77.1585 Y73.5500
G01 X77.1672 Y73.5404
G01 X77.1777 Y73.5277
G01 X77.1853 Y73.5200
G01 X77.1952 Y73.5110
G01 X77.2040 Y73.5040
G01 X77.2335 Y73.4835
G01 X77.2506 Y73.4738
G01 X77.2571 Y73.4706
G01 X77.2670 Y73.4665
G01 X77.3004 Y73.4544
G01 X77.3152 Y73.4505
G01 X77.3263 Y73.4483
G01 X77.3616 Y73.4444
G01 X77.3762 Y73.4437
G01 X78.0334 Y73.4437
G01 X78.2230 Y73.3928
G01 X78.2330 Y73.3905
G01 X78.2564 Y73.3861
G01 X78.2849 Y73.3836
G01 X78.2993 Y73.3836
G01 X78.3229 Y73.3849
G01 X78.3342 Y73.3864
G01 X78.3516 Y73.3894
G01 X78.3666 Y73.3930
G01 X78.3862 Y73.3991
G01 X78.3962 Y73.4027
G01 X78.4237 Y73.4153
G01 X78.4304 Y73.4190
G01 X78.4522 Y73.4326
G01 X78.4610 Y73.4390
G01 X78.4742 Y73.4495
G01 X78.4796 Y73.4541
G01 X78.4874 Y73.4615
G01 X78.5013 Y73.4760
G01 X78.5087 Y73.4845
G01 X78.5261 Y73.5081
G01 X78.5407 Y73.5333
G01 X78.5472 Y73.5467
G01 X78.5540 Y73.5632
G01 X78.5579 Y73.5741
G01 X78.5661 Y73.6051
G01 X78.5705 Y73.6351
G01 X78.5712 Y73.6462
G01 X78.5715 Y73.6676
G01 X78.5710 Y73.6787
G01 X78.5701 Y73.6871
G01 X78.5835 Y73.6692
G01 X78.5906 Y73.6607
G01 X78.7488 Y73.4862
G01 X78.7592 Y73.4758
G01 X78.9393 Y73.3128
G01 X79.1343 Y73.1680
G01 X79.1465 Y73.1598
G01 X79.3549 Y73.0351
G01 X79.5812 Y72.9281
G01 X79.8168 Y72.8438
G01 X80.0398 Y72.7877
G01 X80.0128 Y72.7752
G01 X80.0035 Y72.7699
G01 X79.9931 Y72.7633
G01 X79.9806 Y72.7544
G01 X79.9553 Y72.7335
G01 X79.9386 Y72.7164
G01 X79.9296 Y72.7056
G01 X79.9114 Y72.6804
G01 X79.9059 Y72.6713
G01 X79.8980 Y72.6571
G01 X79.8935 Y72.6473
G01 X79.8892 Y72.6359
G01 X79.8842 Y72.6245
G01 X79.8794 Y72.6104
G01 X79.8738 Y72.5881
G01 X79.8689 Y72.5529
G01 X79.8682 Y72.5415
G01 X79.8681 Y72.5271
G01 X79.8690 Y72.5119
G01 X79.8726 Y72.4823
G01 X79.8741 Y72.4747
G01 X79.8781 Y72.4582
G01 X79.8825 Y72.4440
G01 X79.8874 Y72.4324
G01 X79.8930 Y72.4172
G01 X79.8977 Y72.4071
G01 X79.9052 Y72.3935
G01 X79.9127 Y72.3816
G01 X79.9200 Y72.3717
G01 X79.9293 Y72.3583
G01 X79.9363 Y72.3498
G01 X79.9450 Y72.3403
G01 X80.3218 Y71.6878
G01 X80.5167 Y70.9605
G01 X80.5167 Y70.2075
G01 X80.3218 Y69.4802
G01 X79.9453 Y68.8281
G01 X79.4129 Y68.2957
G01 X78.7608 Y67.9192
G01 X78.0335 Y67.7243
G01 X77.2805 Y67.7243
G01 X76.5532 Y67.9192
G01 X75.9011 Y68.2957
G01 X75.3687 Y68.8281
G01 X74.9922 Y69.4802
G01 X74.7973 Y70.2075
G01 X74.7973 Y70.9605
G01 X74.9922 Y71.6878
G01 X75.1792 Y72.0117
G01 X75.1881 Y72.0289
G01 X75.1947 Y72.0440
G01 X75.1984 Y72.0549
G01 X75.2072 Y72.0842
G01 X75.2103 Y72.0983
G01 X75.2128 Y72.1156
G01 X75.2144 Y72.1488
G01 X75.2145 Y72.1594
G01 X75.2138 Y72.1699
G01 X75.2123 Y72.1836
G01 X75.2051 Y72.2187
G01 X75.2023 Y72.2295
G01 X75.2000 Y72.2366
G01 X75.1957 Y72.2482
G01 X75.1913 Y72.2580
G01 X75.1788 Y72.2831
G01 X75.1737 Y72.2924
G01 X75.1647 Y72.3062
G01 X75.1579 Y72.3151
G01 X75.1468 Y72.3276
G01 X75.1363 Y72.3403
G01 X75.1313 Y72.3455
G01 X75.1234 Y72.3529
G01 X75.1100 Y72.3640
G01 X75.0774 Y72.3864
G01 X75.0602 Y72.3958
G01 X75.0470 Y72.4015
G01 X75.0136 Y72.4136
G01 X74.9914 Y72.4191
G01 X74.9803 Y72.4207
G01 X74.9524 Y72.4236
G01 X74.9378 Y72.4243
G01 X74.2805 Y72.4243
G01 X73.5532 Y72.6192
G01 X72.9011 Y72.9957
G01 X72.3687 Y73.5281
G01 X71.9936 Y74.1779
G01 X71.9869 Y74.1889
G01 X71.9775 Y74.2025
G01 X71.9710 Y74.2110
G01 X71.9590 Y74.2241
G01 X71.9519 Y74.2325
G01 X71.9442 Y74.2405
G01 X71.9304 Y74.2526
G01 X71.9216 Y74.2597
G01 X71.8908 Y74.2800
G01 X71.8809 Y74.2853
G01 X71.8627 Y74.2939
G01 X71.8327 Y74.3046
G01 X71.8223 Y74.3077
G01 X71.8057 Y74.3114
G01 X71.7949 Y74.3132
G01 X71.7648 Y74.3159
G01 X71.7537 Y74.3163
G01 X66.1429 Y74.3163
G01 X66.1356 Y74.3161
G01 X66.1189 Y74.3148
G01 X66.1044 Y74.3128
G01 X66.0916 Y74.3099
G01 X66.0782 Y74.3074
G01 X66.0636 Y74.3033
G01 X66.0418 Y74.2953
G01 X66.0160 Y74.2828
G01 X66.0033 Y74.2757
G01 X65.9846 Y74.2633
G01 X65.9785 Y74.2586
G01 X65.9681 Y74.2495
G01 X65.9603 Y74.2432
G01 X65.9517 Y74.2353
G01 X58.4527 Y66.7363
G01 X58.4432 Y66.7261
G01 X58.4300 Y66.7104
G01 X58.4231 Y66.7008
G01 X58.4175 Y66.6918
G01 X58.4119 Y66.6838
G01 X58.4082 Y66.6777
G01 X58.4031 Y66.6683
G01 X58.3947 Y66.6510
G01 X58.3906 Y66.6404
G01 X58.3814 Y66.6130
G01 X58.3757 Y66.5875
G01 X58.3737 Y66.5724
G01 X58.3732 Y66.5617
G01 X58.3721 Y66.5515
G01 X58.3717 Y66.5405
G01 X58.3717 Y54.1095
G01 X58.3719 Y54.0976
G01 X58.3732 Y54.0809
G01 X58.3746 Y54.0700
G01 X58.3759 Y54.0628
G01 X58.3781 Y54.0536
G01 X58.3806 Y54.0402
G01 X58.3825 Y54.0329
G01 X58.3886 Y54.0143
G01 X58.3927 Y54.0038
G01 X58.4068 Y53.9747
G01 X58.4123 Y53.9653
G01 X58.4203 Y53.9529
G01 X58.4294 Y53.9405
G01 X58.4385 Y53.9301
G01 X58.4448 Y53.9223
G01 X58.4527 Y53.9137
G01 X61.2797 Y51.0867
G01 X61.2899 Y51.0772
G01 X61.3025 Y51.0664
G01 X61.3152 Y51.0571
G01 X61.3242 Y51.0515
G01 X61.3352 Y51.0440
G01 X61.3414 Y51.0404
G01 X61.3616 Y51.0303
G01 X61.3721 Y51.0259
G01 X61.4030 Y51.0154
G01 X61.4247 Y51.0105
G01 X61.4398 Y51.0081
G01 X61.4718 Y51.0057
G01 X61.6888 Y51.0058
G01 X61.7081 Y51.0072
G01 X61.7191 Y51.0086
G01 X61.7354 Y51.0121
G01 X61.7449 Y51.0138
G01 X61.7559 Y51.0165
G01 X61.7800 Y51.0246
G01 X61.7930 Y51.0303
G01 X61.8173 Y51.0426
G01 X61.8266 Y51.0483
G01 X61.8422 Y51.0587
G01 X61.8513 Y51.0658
G01 X61.8723 Y51.0840
G01 X61.9266 Y51.1382
G01 X62.1909 Y51.2477
G01 X62.1996 Y51.2516
G01 X62.2180 Y51.2608
G01 X62.2315 Y51.2689
G01 X62.2544 Y51.2846
G01 X62.2759 Y51.3031
G01 X62.2836 Y51.3108
G01 X62.2992 Y51.3283
G01 X62.3087 Y51.3406
G01 X62.3191 Y51.3559
G01 X62.3231 Y51.3623
G01 X62.3344 Y51.3839
G01 X62.3390 Y51.3936
G01 X62.3473 Y51.4152
G01 X62.3497 Y51.4225
G01 X62.3563 Y51.4493
G01 X62.3578 Y51.4568
G01 X62.3595 Y51.4681
G01 X62.3613 Y51.4869
G01 X62.3617 Y51.4981
G01 X62.3607 Y51.5286
G01 X62.3569 Y51.5554
G01 X62.3535 Y51.5705
G01 X62.3476 Y51.5908
G01 X62.3440 Y51.6012
G01 X62.3360 Y51.6205
G01 X62.3328 Y51.6270
G01 X62.3187 Y51.6518
G01 X62.3678 Y51.6343
G01 X62.3784 Y51.6309
G01 X62.4617 Y51.6100
G01 X62.4725 Y51.6077
G01 X62.5649 Y51.5941
G01 X62.6618 Y51.5894
G01 X64.3419 Y51.5894
G01 X64.4351 Y51.5941
G01 X64.5275 Y51.6077
G01 X64.5383 Y51.6100
G01 X64.6216 Y51.6309
G01 X64.6322 Y51.6343
G01 X64.6811 Y51.6518
G01 X64.6692 Y51.6311
G01 X64.6632 Y51.6182
G01 X64.6529 Y51.5926
G01 X64.6458 Y51.5682
G01 X64.6429 Y51.5535
G01 X64.6390 Y51.5263
G01 X64.6382 Y51.5029
G01 X64.6384 Y51.4913
G01 X64.6413 Y51.4629
G01 X64.6437 Y51.4490
G01 X64.6493 Y51.4258
G01 X64.6594 Y51.3976
G01 X64.6652 Y51.3843
G01 X64.6767 Y51.3627
G01 X64.6935 Y51.3376
G01 X64.7023 Y51.3264
G01 X64.7196 Y51.3075
G01 X64.7250 Y51.3024
G01 X64.7428 Y51.2869
G01 X64.7517 Y51.2800
G01 X64.7667 Y51.2699
G01 X64.7727 Y51.2661
G01 X64.7820 Y51.2609
G01 X64.7915 Y51.2564
G01 X64.8019 Y51.2509
G01 X64.8091 Y51.2477
G01 X65.0734 Y51.1382
G01 X65.4384 Y50.7732
G01 X65.6361 Y50.2962
G01 X65.6361 Y49.7798
G01 X65.4384 Y49.3028
G01 X65.0734 Y48.9378
G01 X64.5964 Y48.7401
G01 X62.4036 Y48.7401
G01 X61.9266 Y48.9378
G01 X61.8698 Y48.9944
G01 X61.8533 Y49.0088
G01 X61.8417 Y49.0176
G01 X61.8165 Y49.0338
G01 X61.8071 Y49.0389
G01 X61.7919 Y49.0463
G01 X61.7821 Y49.0504
G01 X61.7687 Y49.0547
G01 X61.7587 Y49.0585
G01 X61.7447 Y49.0624
G01 X61.7263 Y49.0663
G01 X61.7188 Y49.0675
G01 X61.6903 Y49.0699
G01 X61.6793 Y49.0703
G01 X60.7675 Y49.0703
G01 X60.4119 Y49.2177
G01 X58.8444 Y50.7851
G01 X58.8290 Y50.7994
G01 X58.8145 Y50.8110
G01 X58.8051 Y50.8173
G01 X58.7769 Y50.8345
G01 X58.7675 Y50.8394
G01 X58.7583 Y50.8435
G01 X58.7444 Y50.8487
G01 X58.7153 Y50.8577
G01 X58.7013 Y50.8612
G01 X58.6904 Y50.8631
G01 X58.6798 Y50.8643
G01 X58.6456 Y50.8658
G01 X58.6349 Y50.8658
G01 X58.6220 Y50.8649
G01 X58.6113 Y50.8635
G01 X58.5738 Y50.8557
G01 X58.5630 Y50.8527
G01 X58.5470 Y50.8468
G01 X58.5068 Y50.8271
G01 X58.4972 Y50.8212
G01 X58.4860 Y50.8133
G01 X58.4577 Y50.7894
G01 X58.4494 Y50.7816
G01 X58.4426 Y50.7744
G01 X58.4354 Y50.7659
G01 X58.4309 Y50.7599
G01 X58.4095 Y50.7288
G01 X58.4019 Y50.7150
G01 X58.3971 Y50.7046
G01 X58.3836 Y50.6688
G01 X58.3813 Y50.6616
G01 X58.3780 Y50.6484
G01 X58.3757 Y50.6344
G01 X58.3724 Y50.6041
G01 X58.3717 Y50.5893
G01 X58.3717 Y32.0802
G01 X58.3723 Y32.0631
G01 X58.3736 Y32.0477
G01 X58.3752 Y32.0368
G01 X58.3815 Y32.0072
G01 X58.3882 Y31.9861
G01 X58.3933 Y31.9729
G01 X58.4052 Y31.9487
G01 X58.4123 Y31.9360
G01 X58.4247 Y31.9173
G01 X58.4294 Y31.9112
G01 X58.4382 Y31.9012
G01 X58.4436 Y31.8944
G01 X58.4527 Y31.8843
G01 X61.3913 Y28.9458
G01 X61.4047 Y28.9334
G01 X61.4210 Y28.9201
G01 X61.4516 Y28.9004
G01 X61.4611 Y28.8951
G01 X61.4744 Y28.8887
G01 X61.4848 Y28.8844
G01 X61.5160 Y28.8743
G01 X61.5266 Y28.8715
G01 X61.5408 Y28.8687
G01 X61.5515 Y28.8671
G01 X61.5846 Y28.8649
G01 X61.5955 Y28.8649
G01 X61.6101 Y28.8657
G01 X61.6211 Y28.8669
G01 X61.6538 Y28.8731
G01 X61.6646 Y28.8758
G01 X61.6815 Y28.8813
G01 X61.6917 Y28.8855
G01 X61.7049 Y28.8920
G01 X61.7188 Y28.8983
G01 X61.7290 Y28.9039
G01 X61.7428 Y28.9127
G01 X61.7517 Y28.9193
G01 X61.7631 Y28.9290
G01 X61.7749 Y28.9384
G01 X61.7834 Y28.9463
G01 X61.7931 Y28.9566
G01 X61.8002 Y28.9649
G01 X61.8194 Y28.9912
G01 X61.8255 Y29.0007
G01 X61.8341 Y29.0164
G01 X61.8386 Y29.0262
G01 X61.8438 Y29.0401
G01 X61.8494 Y29.0534
G01 X61.8537 Y29.0668
G01 X61.8576 Y29.0821
G01 X61.8595 Y29.0930
G01 X61.8610 Y29.1071
G01 X61.8630 Y29.1207
G01 X61.8640 Y29.1358
G01 X61.8931 Y29.0966
G01 X61.9000 Y29.0880
G01 X61.9602 Y29.0216
G01 X61.9681 Y29.0139
G01 X62.0318 Y28.9562
G01 X62.0404 Y28.9493
G01 X62.1126 Y28.8960
G01 X62.1925 Y28.8479
G01 X62.2023 Y28.8428
G01 X62.2835 Y28.8046
G01 X62.3748 Y28.7720
G01 X62.4689 Y28.7484
G01 X62.5612 Y28.7345
G01 X62.5722 Y28.7336
G01 X62.6618 Y28.7294
G01 X64.3419 Y28.7294
G01 X64.4351 Y28.7341
G01 X64.5275 Y28.7477
G01 X64.5383 Y28.7500
G01 X64.6216 Y28.7709
G01 X64.6322 Y28.7743
G01 X64.6811 Y28.7918
G01 X64.6709 Y28.7742
G01 X64.6646 Y28.7615
G01 X64.6539 Y28.7354
G01 X64.6464 Y28.7104
G01 X64.6434 Y28.6966
G01 X64.6394 Y28.6698
G01 X64.6385 Y28.6556
G01 X64.6382 Y28.6390
G01 X64.6384 Y28.6313
G01 X64.6413 Y28.6029
G01 X64.6437 Y28.5890
G01 X64.6493 Y28.5658
G01 X64.6592 Y28.5379
G01 X64.6649 Y28.5249
G01 X64.6768 Y28.5025
G01 X64.6922 Y28.4796
G01 X64.7015 Y28.4673
G01 X64.7142 Y28.4531
G01 X64.7218 Y28.4453
G01 X64.7435 Y28.4264
G01 X64.7521 Y28.4198
G01 X64.7667 Y28.4099
G01 X64.7727 Y28.4061
G01 X64.7820 Y28.4009
G01 X64.7915 Y28.3964
G01 X64.8019 Y28.3909
G01 X64.8091 Y28.3877
G01 X65.0734 Y28.2782
G01 X65.4384 Y27.9132
G01 X65.6361 Y27.4362
G01 X65.6361 Y26.9198
G01 X65.4384 Y26.4428
G01 X65.0734 Y26.0778
G01 X64.5964 Y25.8801
G01 X62.4036 Y25.8801
G01 X61.9266 Y26.0778
G01 X61.8698 Y26.1344
G01 X61.8505 Y26.1511
G01 X61.8417 Y26.1576
G01 X61.8165 Y26.1738
G01 X61.8071 Y26.1789
G01 X61.7854 Y26.1891
G01 X61.7588 Y26.1985
G01 X61.7484 Y26.2015
G01 X61.7259 Y26.2064
G01 X61.7148 Y26.2080
G01 X61.6830 Y26.2103
G01 X61.5982 Y26.2103
G01 X61.2426 Y26.3577
G01 X58.8444 Y28.7558
G01 X58.8386 Y28.7614
G01 X58.8263 Y28.7723
G01 X58.8119 Y28.7835
G01 X58.7865 Y28.7996
G01 X58.7715 Y28.8080
G01 X58.7583 Y28.8142
G01 X58.7444 Y28.8194
G01 X58.7158 Y28.8281
G01 X58.7052 Y28.8309
G01 X58.6945 Y28.8330
G01 X58.6772 Y28.8350
G01 X58.6455 Y28.8365
G01 X58.6311 Y28.8363
G01 X58.6214 Y28.8355
G01 X58.6104 Y28.8340
G01 X58.5700 Y28.8254
G01 X58.5548 Y28.8205
G01 X58.5443 Y28.8163
G01 X58.5135 Y28.8013
G01 X58.5036 Y28.7959
G01 X58.4860 Y28.7840
G01 X58.4577 Y28.7601
G01 X58.4494 Y28.7523
G01 X58.4441 Y28.7467
G01 X58.4384 Y28.7402
G01 X58.4314 Y28.7311
G01 X58.4095 Y28.6995
G01 X58.4019 Y28.6856
G01 X58.3970 Y28.6751
G01 X58.3836 Y28.6395
G01 X58.3813 Y28.6323
G01 X58.3779 Y28.6184
G01 X58.3748 Y28.5988
G01 X58.3739 Y28.5866
G01 X58.3721 Y28.5711
G01 X58.3717 Y28.5599
G01 X58.3717 Y9.6012
G01 X58.3723 Y9.5841
G01 X58.3736 Y9.5687
G01 X58.3752 Y9.5578
G01 X58.3815 Y9.5282
G01 X58.3836 Y9.5209
G01 X58.3894 Y9.5038
G01 X58.3948 Y9.4907
G01 X58.4009 Y9.4788
G01 X58.4052 Y9.4697
G01 X58.4086 Y9.4632
G01 X58.4143 Y9.4539
G01 X58.4225 Y9.4414
G01 X58.4294 Y9.4322
G01 X58.4382 Y9.4222
G01 X58.4458 Y9.4128
G01 X58.4527 Y9.4053
G01 X61.3216 Y6.5365
G01 X61.3297 Y6.5290
G01 X61.3465 Y6.5151
G01 X61.3555 Y6.5088
G01 X61.3638 Y6.5037
G01 X61.3745 Y6.4964
G01 X61.3838 Y6.4911
G01 X61.3989 Y6.4836
G01 X61.4087 Y6.4793
G01 X61.4153 Y6.4768
G01 X61.4254 Y6.4737
G01 X61.4354 Y6.4699
G01 X61.4458 Y6.4668
G01 X61.4678 Y6.4621
G01 X61.4791 Y6.4605
G01 X61.4936 Y6.4596
G01 X61.5038 Y6.4585
G01 X61.5148 Y6.4581
G01 X61.7584 Y6.4581
G01 X61.7899 Y6.3920
G01 X61.8359 Y6.3150
G01 X61.8440 Y6.3027
G01 X61.8953 Y6.2337
G01 X61.9024 Y6.2253
G01 X61.9627 Y6.1589
G01 X62.0291 Y6.0986
G01 X62.0375 Y6.0915
G01 X62.1065 Y6.0402
G01 X62.1188 Y6.0321
G01 X62.1958 Y5.9861
G01 X62.2767 Y5.9476
G01 X62.2903 Y5.9420
G01 X62.3748 Y5.9120
G01 X62.4617 Y5.8900
G01 X62.4725 Y5.8877
G01 X62.5649 Y5.8741
G01 X62.6618 Y5.8694
G01 X64.3419 Y5.8694
G01 X64.4351 Y5.8741
G01 X64.5275 Y5.8877
G01 X64.5383 Y5.8900
G01 X64.6216 Y5.9109
G01 X64.6322 Y5.9143
G01 X64.6811 Y5.9318
G01 X64.6709 Y5.9142
G01 X64.6646 Y5.9015
G01 X64.6539 Y5.8754
G01 X64.6464 Y5.8504
G01 X64.6434 Y5.8366
G01 X64.6394 Y5.8098
G01 X64.6385 Y5.7956
G01 X64.6382 Y5.7790
G01 X64.6384 Y5.7713
G01 X64.6413 Y5.7429
G01 X64.6437 Y5.7290
G01 X64.6493 Y5.7058
G01 X64.6592 Y5.6779
G01 X64.6649 Y5.6649
G01 X64.6768 Y5.6425
G01 X64.6922 Y5.6196
G01 X64.7015 Y5.6073
G01 X64.7142 Y5.5931
G01 X64.7218 Y5.5853
G01 X64.7435 Y5.5664
G01 X64.7521 Y5.5598
G01 X64.7667 Y5.5499
G01 X64.7727 Y5.5461
G01 X64.7820 Y5.5409
G01 X64.7915 Y5.5364
G01 X64.8019 Y5.5309
G01 X64.8091 Y5.5277
G01 X65.0734 Y5.4182
G01 X65.4384 Y5.0532
G01 X65.6361 Y4.5762
G01 X65.6361 Y4.0598
G01 X65.4384 Y3.5828
G01 X65.0734 Y3.2178
G01 X64.5964 Y3.0201
G01 X63.5297 Y3.0199
G01 X63.5093 Y3.0182
G01 X63.4949 Y3.0159
G01 X63.4686 Y3.0103
G01 X63.4464 Y3.0032
G01 X63.4324 Y2.9976
G01 X63.4068 Y2.9850
G01 X63.3974 Y2.9795
G01 X63.3787 Y2.9671
G01 X63.3726 Y2.9624
G01 X63.3622 Y2.9533
G01 X63.3544 Y2.9470
G01 X63.3458 Y2.9391
G01 X61.9996 Y1.5928
G01 X61.9831 Y1.5747
G01 X61.9718 Y1.5602
G01 X61.9496 Y1.5239
G01 X61.9412 Y1.5067
G01 X61.9360 Y1.4928
G01 X61.9270 Y1.4637
G01 X61.9243 Y1.4532
G01 X61.9223 Y1.4426
G01 X61.9204 Y1.4256
G01 X61.9189 Y1.3939
G01 X61.9189 Y1.3831
G01 X61.9195 Y1.3740
G01 X61.9212 Y1.3597
G01 X61.9277 Y1.3285
G01 X61.9302 Y1.3177
G01 X61.9337 Y1.3067
G01 X61.9377 Y1.2962
G01 X61.9407 Y1.2893
G01 X61.9541 Y1.2619
G01 X61.9615 Y1.2488
G01 X61.9693 Y1.2373
G01 X61.9758 Y1.2289
G01 X61.9953 Y1.2061
G01 X62.0058 Y1.1951
G01 X62.0152 Y1.1868
G01 X62.0243 Y1.1798
G01 X62.0495 Y1.1621
G01 X62.0591 Y1.1560
G01 X62.0697 Y1.1503
G01 X62.0801 Y1.1455
G01 X62.1195 Y1.1308
G01 X62.1329 Y1.1272
G01 X62.1468 Y1.1246
G01 X62.1806 Y1.1208
G01 X62.1954 Y1.1201
G01 X83.9470 Y1.1201
G01 X83.9664 Y1.1207
G01 X83.9801 Y1.1221
G01 X83.9906 Y1.1236
G01 X84.0252 Y1.1314
G01 X84.0362 Y1.1348
G01 X84.0508 Y1.1402
G01 X84.0606 Y1.1446
G01 X84.0729 Y1.1513
G01 X84.0855 Y1.1575
G01 X84.0978 Y1.1647
G01 X84.1152 Y1.1771
G01 X84.1434 Y1.2018
G01 X84.1512 Y1.2098
G01 X84.1604 Y1.2204
G01 X84.1695 Y1.2327
G01 X84.1878 Y1.2603
G01 X84.1961 Y1.2761
G01 X84.2006 Y1.2861
G01 X84.2133 Y1.3215
G01 X84.2185 Y1.3425
G01 X84.2208 Y1.3571
G01 X84.2218 Y1.3713
G01 X84.2235 Y1.3856
G01 X84.2239 Y1.3970
G01 X84.2239 Y80.6450
G01 X84.2233 Y80.6644
G01 X84.2219 Y80.6781
G01 X84.2204 Y80.6886
G01 X84.2126 Y80.7232
G01 X84.2092 Y80.7342
G01 X84.2038 Y80.7488
G01 X84.1994 Y80.7586
G01 X84.1927 Y80.7709
G01 X84.1865 Y80.7835
G01 X84.1793 Y80.7958
G01 X84.1669 Y80.8132
G01 X84.1422 Y80.8414
G01 X84.1342 Y80.8492
G01 X84.1236 Y80.8584
G01 X84.1113 Y80.8675
G01 X84.0837 Y80.8858
G01 X84.0679 Y80.8941
G01 X84.0579 Y80.8986
G01 X84.0225 Y80.9113
G01 X84.0015 Y80.9165
G01 X83.9869 Y80.9188
G01 X83.9727 Y80.9198
G01 X83.9584 Y80.9215
G01 X83.9470 Y80.9219
G01 X1.3970 Y80.9219
G01 X1.3776 Y80.9213
G01 X1.3639 Y80.9199
G01 X1.3534 Y80.9184
G01 X1.3188 Y80.9106
G01 X1.3078 Y80.9072
G01 X1.2932 Y80.9018
G01 X1.2834 Y80.8974
G01 X1.2711 Y80.8907
G01 X1.2585 Y80.8845
G01 X1.2462 Y80.8773
G01 X1.2288 Y80.8649
G01 X1.2006 Y80.8402
G01 X1.1928 Y80.8322
G01 X1.1836 Y80.8216
G01 X1.1745 Y80.8093
G01 X1.1562 Y80.7817
G01 X1.1479 Y80.7659
G01 X1.1434 Y80.7559
G01 X1.1307 Y80.7205
G01 X1.1255 Y80.6995
G01 X1.1232 Y80.6849
G01 X1.1222 Y80.6707
G01 X1.1205 Y80.6564
G01 X1.1201 Y80.6450
G01 X1.1201 Y67.9104
G01 X1.1210 Y67.8872
G01 X1.1234 Y67.8681
G01 X1.1320 Y67.8314
G01 X1.1362 Y67.8172
G01 X1.1397 Y67.8080
G01 X1.1441 Y67.7979
G01 X1.1605 Y67.7671
G01 X1.1679 Y67.7549
G01 X1.1778 Y67.7413
G01 X1.2033 Y67.7130
G01 X1.2144 Y67.7022
G01 X1.2293 Y67.6903
G01 X1.2613 Y67.6692
G01 X1.2741 Y67.6622
G01 X1.2896 Y67.6555
G01 X1.3260 Y67.6430
G01 X1.3427 Y67.6389
G01 X1.3536 Y67.6370
G01 X1.3609 Y67.6362
G01 X1.3943 Y67.6338
G01 X1.4088 Y67.6338
G01 X1.4190 Y67.6345
G01 X1.4296 Y67.6358
G01 X1.4631 Y67.6418
G01 X1.4771 Y67.6454
G01 X1.4868 Y67.6486
G01 X1.4970 Y67.6526
G01 X1.5273 Y67.6664
G01 X1.5426 Y67.6749
G01 X1.5490 Y67.6789
G01 X1.5581 Y67.6856
G01 X1.5818 Y67.7047
G01 X1.5928 Y67.7146
G01 X10.0504 Y76.1722
G01 X10.3687 Y76.3041
G01 X11.7396 Y76.3041
G01 X11.7505 Y76.3045
G01 X11.7745 Y76.3070
G01 X11.8080 Y76.3139
G01 X11.8189 Y76.3171
G01 X11.8372 Y76.3236
G01 X11.8476 Y76.3282
G01 X11.8570 Y76.3332
G01 X11.8698 Y76.3392
G01 X11.8792 Y76.3447
G01 X11.8948 Y76.3549
G01 X11.9070 Y76.3642
G01 X11.9281 Y76.3826
G01 X12.0221 Y76.4765
G01 X12.0517 Y76.4983
G01 X12.0600 Y76.5056
G01 X12.0677 Y76.5131
G01 X12.0749 Y76.5212
G01 X12.0978 Y76.5493
G01 X12.1074 Y76.5639
G01 X12.1143 Y76.5767
G01 X12.1290 Y76.6082
G01 X12.1345 Y76.6231
G01 X12.1385 Y76.6374
G01 X12.1452 Y76.6718
G01 X12.1471 Y76.6867
G01 X12.1477 Y76.7026
G01 X12.1457 Y76.7399
G01 X12.1440 Y76.7542
G01 X12.1414 Y76.7675
G01 X12.1384 Y76.7786
G01 X12.1276 Y76.8116
G01 X12.1210 Y76.8269
G01 X12.1139 Y76.8404
G01 X12.0943 Y76.8714
G01 X12.0853 Y76.8834
G01 X12.0756 Y76.8944
G01 X12.0436 Y76.9244
G01 X12.0323 Y76.9331
G01 X12.0224 Y76.9397
G01 X11.6710 Y77.2905
G01 X11.4863 Y77.7365
G01 X11.4863 Y78.2195
G01 X11.6711 Y78.6655
G01 X12.0125 Y79.0069
G01 X12.4585 Y79.1917
G01 X12.9415 Y79.1917
G01 X13.3875 Y79.0069
G01 X13.7289 Y78.6655
G01 X13.9137 Y78.2195
G01 X13.9137 Y77.7365
G01 X13.7289 Y77.2905
G01 X13.3782 Y76.9398
G01 X13.3517 Y76.9204
G01 X13.3429 Y76.9130
G01 X13.3361 Y76.9066
G01 X13.3282 Y76.8983
G01 X13.3067 Y76.8725
G01 X13.2980 Y76.8606
G01 X13.2909 Y76.8493
G01 X13.2875 Y76.8430
G01 X13.2725 Y76.8114
G01 X13.2670 Y76.7977
G01 X13.2633 Y76.7857
G01 X13.2614 Y76.7784
G01 X13.2549 Y76.7444
G01 X13.2529 Y76.7294
G01 X13.2523 Y76.7134
G01 X13.2543 Y76.6761
G01 X13.2554 Y76.6654
G01 X13.2566 Y76.6583
G01 X13.2605 Y76.6411
G01 X13.2712 Y76.6079
G01 X13.2767 Y76.5940
G01 X13.2842 Y76.5789
G01 X13.3036 Y76.5478
G01 X13.3124 Y76.5355
G01 X13.3207 Y76.5256
G01 X13.3260 Y76.5200
G01 X13.3516 Y76.4959
G01 X13.3623 Y76.4869
G01 X13.3706 Y76.4809
G01 X13.3776 Y76.4763
G01 X13.7290 Y76.1255
G01 X13.9137 Y75.6795
G01 X13.9137 Y75.1965
G01 X13.7289 Y74.7505
G01 X13.3875 Y74.4091
G01 X12.9550 Y74.2300
G01 X12.9317 Y74.2188
G01 X12.9225 Y74.2139
G01 X12.9063 Y74.2037
G01 X12.8732 Y74.1776
G01 X12.8650 Y74.1697
G01 X12.8539 Y74.1578
G01 X12.8335 Y74.1314
G01 X12.8237 Y74.1168
G01 X12.8143 Y74.0998
G01 X12.8004 Y74.0672
G01 X12.7958 Y74.0539
G01 X12.7926 Y74.0426
G01 X12.7903 Y74.0316
G01 X12.7853 Y73.9984
G01 X12.7843 Y73.9842
G01 X12.7841 Y73.9740
G01 X12.7845 Y73.9628
G01 X12.7879 Y73.9295
G01 X12.7904 Y73.9152
G01 X12.7929 Y73.9050
G01 X12.7960 Y73.8946
G01 X12.8076 Y73.8629
G01 X12.8136 Y73.8496
G01 X12.8203 Y73.8373
G01 X12.8243 Y73.8307
G01 X12.8432 Y73.8034
G01 X12.8503 Y73.7944
G01 X12.8562 Y73.7878
G01 X12.7886 Y73.7976
G01 X12.7000 Y73.8020
G01 X12.6114 Y73.7976
G01 X12.5426 Y73.7876
G01 X12.5579 Y73.8046
G01 X12.5644 Y73.8132
G01 X12.5713 Y73.8232
G01 X12.5784 Y73.8356
G01 X12.5842 Y73.8472
G01 X12.5903 Y73.8585
G01 X12.5949 Y73.8683
G01 X12.6000 Y73.8817
G01 X12.6034 Y73.8922
G01 X12.6117 Y73.9271
G01 X12.6141 Y73.9415
G01 X12.6156 Y73.9614
G01 X12.6147 Y73.9972
G01 X12.6138 Y74.0078
G01 X12.6125 Y74.0175
G01 X12.6095 Y74.0325
G01 X12.5992 Y74.0686
G01 X12.5928 Y74.0849
G01 X12.5881 Y74.0950
G01 X12.5715 Y74.1240
G01 X12.5678 Y74.1301
G01 X12.5617 Y74.1388
G01 X12.5493 Y74.1542
G01 X12.5214 Y74.1823
G01 X12.5158 Y74.1872
G01 X12.5049 Y74.1959
G01 X12.4959 Y74.2021
G01 X12.4703 Y74.2176
G01 X12.4567 Y74.2248
G01 X12.4450 Y74.2300
G01 X12.0125 Y74.4091
G01 X11.9262 Y74.4953
G01 X11.9080 Y74.5112
G01 X11.8953 Y74.5205
G01 X11.8722 Y74.5354
G01 X11.8507 Y74.5465
G01 X11.8375 Y74.5521
G01 X11.8075 Y74.5622
G01 X11.7858 Y74.5671
G01 X11.7707 Y74.5695
G01 X11.7387 Y74.5719
G01 X11.0062 Y74.5718
G01 X10.9821 Y74.5700
G01 X10.9713 Y74.5684
G01 X10.9414 Y74.5621
G01 X10.9192 Y74.5550
G01 X10.9052 Y74.5494
G01 X10.8796 Y74.5368
G01 X10.8702 Y74.5313
G01 X10.8515 Y74.5189
G01 X10.8454 Y74.5142
G01 X10.8350 Y74.5051
G01 X10.8272 Y74.4988
G01 X10.8186 Y74.4909
G01 X3.1061 Y66.7784
G01 X3.0966 Y66.7682
G01 X3.0858 Y66.7556
G01 X3.0765 Y66.7429
G01 X3.0709 Y66.7339
G01 X3.0652 Y66.7257
G01 X3.0596 Y66.7163
G01 X3.0506 Y66.6984
G01 X3.0463 Y66.6886
G01 X3.0358 Y66.6586
G01 X3.0330 Y66.6481
G01 X3.0299 Y66.6334
G01 X3.0279 Y66.6221
G01 X3.0271 Y66.6145
G01 X3.0266 Y66.6038
G01 X3.0255 Y66.5936
G01 X3.0251 Y66.5826
G01 X3.0251 Y53.8035
G01 X3.0264 Y53.7814
G01 X3.0275 Y53.7707
G01 X3.0321 Y53.7457
G01 X3.0346 Y53.7350
G01 X3.0421 Y53.7114
G01 X3.0448 Y53.7043
G01 X3.0554 Y53.6812
G01 X3.0603 Y53.6718
G01 X3.0742 Y53.6497
G01 X3.0785 Y53.6435
G01 X3.0937 Y53.6247
G01 X3.1009 Y53.6165
G01 X3.1060 Y53.6114
G01 X3.1256 Y53.5935
G01 X3.1313 Y53.5891
G01 X3.1514 Y53.5746
G01 X3.1606 Y53.5691
G01 X3.1838 Y53.5566
G01 X3.2057 Y53.5475
G01 X3.2164 Y53.5436
G01 X3.2274 Y53.5404
G01 X3.2508 Y53.5348
G01 X3.2808 Y53.5309
G01 X3.2921 Y53.5303
G01 X3.3156 Y53.5304
G01 X3.3268 Y53.5312
G01 X3.3504 Y53.5343
G01 X3.3617 Y53.5367
G01 X3.3841 Y53.5425
G01 X3.3949 Y53.5462
G01 X3.4071 Y53.5510
G01 X3.3900 Y53.5225
G01 X3.3847 Y53.5128
G01 X3.3495 Y53.4385
G01 X3.3454 Y53.4283
G01 X3.3202 Y53.3578
G01 X3.3169 Y53.3473
G01 X3.2962 Y53.2640
G01 X3.2839 Y53.1827
G01 X3.2825 Y53.1681
G01 X3.2786 Y53.0860
G01 X3.2825 Y53.0039
G01 X3.2839 Y52.9893
G01 X3.2962 Y52.9080
G01 X3.3169 Y52.8247
G01 X3.3202 Y52.8142
G01 X3.3454 Y52.7437
G01 X3.3495 Y52.7335
G01 X3.3847 Y52.6592
G01 X3.3900 Y52.6495
G01 X3.4071 Y52.6209
G01 X3.3948 Y52.6259
G01 X3.3841 Y52.6295
G01 X3.3532 Y52.6372
G01 X3.3270 Y52.6407
G01 X3.3195 Y52.6414
G01 X3.2919 Y52.6417
G01 X3.2768 Y52.6407
G01 X3.2573 Y52.6383
G01 X3.2460 Y52.6362
G01 X3.2161 Y52.6283
G01 X3.1908 Y52.6185
G01 X3.1777 Y52.6123
G01 X3.1580 Y52.6016
G01 X3.1490 Y52.5959
G01 X3.1252 Y52.5782
G01 X3.1028 Y52.5574
G01 X3.0950 Y52.5489
G01 X3.0824 Y52.5336
G01 X3.0739 Y52.5219
G01 X3.0601 Y52.4998
G01 X3.0565 Y52.4930
G01 X3.0473 Y52.4735
G01 X3.0432 Y52.4633
G01 X3.0369 Y52.4443
G01 X3.0337 Y52.4336
G01 X3.0321 Y52.4263
G01 X3.0273 Y52.3999
G01 X3.0251 Y52.3688
G01 X3.0251 Y51.7763
G01 X3.0263 Y51.7494
G01 X3.0291 Y51.7302
G01 X3.0389 Y51.6902
G01 X3.0425 Y51.6797
G01 X3.0476 Y51.6671
G01 X3.0672 Y51.6298
G01 X3.0729 Y51.6208
G01 X3.0783 Y51.6131
G01 X3.0876 Y51.6016
G01 X3.1083 Y51.5789
G01 X3.1166 Y51.5707
G01 X3.1258 Y51.5628
G01 X3.1343 Y51.5562
G01 X3.1632 Y51.5371
G01 X3.1723 Y51.5317
G01 X3.1823 Y51.5266
G01 X3.1921 Y51.5222
G01 X3.2275 Y51.5100
G01 X3.2380 Y51.5070
G01 X3.2477 Y51.5048
G01 X3.2550 Y51.5034
G01 X3.2659 Y51.5021
G01 X3.3029 Y51.4995
G01 X3.3203 Y51.5001
G01 X3.3309 Y51.5012
G01 X3.3717 Y51.5085
G01 X3.3887 Y51.5133
G01 X3.4024 Y51.5186
G01 X3.4326 Y51.5324
G01 X3.4419 Y51.5374
G01 X3.4508 Y51.5428
G01 X3.4631 Y51.5515
G01 X3.4866 Y51.5703
G01 X3.4991 Y51.5818
G01 X3.9189 Y51.7557
G01 X3.9424 Y51.7675
G01 X3.9587 Y51.7774
G01 X3.9673 Y51.7837
G01 X3.9889 Y51.8006
G01 X3.9975 Y51.8081
G01 X4.0029 Y51.8134
G01 X4.0115 Y51.8224
G01 X4.0164 Y51.8282
G01 X4.0365 Y51.8545
G01 X4.0424 Y51.8633
G01 X4.0483 Y51.8733
G01 X4.0550 Y51.8864
G01 X4.0692 Y51.9204
G01 X4.0753 Y51.9405
G01 X4.0776 Y51.9515
G01 X4.0821 Y51.9812
G01 X4.0833 Y51.9918
G01 X4.0836 Y51.9989
G01 X4.0838 Y52.0124
G01 X4.0834 Y52.0200
G01 X4.0800 Y52.0536
G01 X4.0783 Y52.0643
G01 X4.0759 Y52.0746
G01 X4.0731 Y52.0851
G01 X4.0707 Y52.0919
G01 X4.0589 Y52.1236
G01 X4.0559 Y52.1303
G01 X4.0495 Y52.1425
G01 X4.0436 Y52.1524
G01 X4.0340 Y52.1658
G01 X4.0270 Y52.1766
G01 X4.0224 Y52.1828
G01 X4.0160 Y52.1906
G01 X4.1016 Y52.1780
G01 X4.1910 Y52.1736
G01 X5.7150 Y52.1736
G01 X5.8044 Y52.1780
G01 X5.8914 Y52.1908
G01 X5.8849 Y52.1840
G01 X5.8780 Y52.1757
G01 X5.8688 Y52.1629
G01 X5.8631 Y52.1538
G01 X5.8446 Y52.1181
G01 X5.8405 Y52.1081
G01 X5.8357 Y52.0944
G01 X5.8328 Y52.0837
G01 X5.8303 Y52.0715
G01 X5.8264 Y52.0560
G01 X5.8240 Y52.0416
G01 X5.8228 Y52.0290
G01 X5.8225 Y52.0180
G01 X5.8232 Y52.0019
G01 X5.8232 Y51.9894
G01 X5.8239 Y51.9788
G01 X5.8256 Y51.9656
G01 X5.8277 Y51.9543
G01 X5.8378 Y51.9180
G01 X5.8414 Y51.9076
G01 X5.8454 Y51.8980
G01 X5.8520 Y51.8844
G01 X5.8701 Y51.8533
G01 X5.8763 Y51.8445
G01 X5.8839 Y51.8346
G01 X5.8911 Y51.8264
G01 X5.9024 Y51.8154
G01 X5.9131 Y51.8041
G01 X5.9209 Y51.7969
G01 X5.9264 Y51.7925
G01 X5.9420 Y51.7812
G01 X5.9681 Y51.7654
G01 X5.9781 Y51.7599
G01 X5.9895 Y51.7547
G01 X6.4070 Y51.5817
G01 X6.4955 Y51.4932
G01 X6.5057 Y51.4836
G01 X6.5183 Y51.4728
G01 X6.5310 Y51.4635
G01 X6.5544 Y51.4484
G01 X6.5755 Y51.4376
G01 X6.5886 Y51.4320
G01 X6.6153 Y51.4228
G01 X6.6293 Y51.4192
G01 X6.6518 Y51.4149
G01 X6.6803 Y51.4125
G01 X6.6913 Y51.4121
G01 X6.9096 Y51.4123
G01 X6.9263 Y51.4136
G01 X6.9372 Y51.4150
G01 X6.9670 Y51.4210
G01 X6.9780 Y51.4240
G01 X6.9964 Y51.4303
G01 X7.0069 Y51.4346
G01 X7.0325 Y51.4472
G01 X7.0419 Y51.4527
G01 X7.0575 Y51.4629
G01 X7.0637 Y51.4674
G01 X7.0879 Y51.4878
G01 X7.1820 Y51.5817
G01 X7.6019 Y51.7557
G01 X7.6254 Y51.7675
G01 X7.6417 Y51.7774
G01 X7.6503 Y51.7837
G01 X7.6719 Y51.8006
G01 X7.6832 Y51.8107
G01 X7.6970 Y51.8253
G01 X7.7195 Y51.8545
G01 X7.7254 Y51.8633
G01 X7.7313 Y51.8733
G01 X7.7380 Y51.8864
G01 X7.7522 Y51.9204
G01 X7.7583 Y51.9405
G01 X7.7612 Y51.9552
G01 X7.7656 Y51.9847
G01 X7.7665 Y51.9953
G01 X7.7666 Y52.0162
G01 X7.7630 Y52.0536
G01 X7.7605 Y52.0679
G01 X7.7580 Y52.0781
G01 X7.7549 Y52.0885
G01 X7.7419 Y52.1236
G01 X7.7389 Y52.1303
G01 X7.7325 Y52.1425
G01 X7.7266 Y52.1524
G01 X7.7170 Y52.1658
G01 X7.7100 Y52.1766
G01 X7.7054 Y52.1828
G01 X7.6990 Y52.1906
G01 X7.7846 Y52.1780
G01 X7.8740 Y52.1736
G01 X9.3980 Y52.1736
G01 X9.4874 Y52.1780
G01 X9.5744 Y52.1908
G01 X9.5679 Y52.1840
G01 X9.5610 Y52.1757
G01 X9.5479 Y52.1568
G01 X9.5427 Y52.1475
G01 X9.5369 Y52.1359
G01 X9.5308 Y52.1246
G01 X9.5248 Y52.1114
G01 X9.5177 Y52.0909
G01 X9.5094 Y52.0560
G01 X9.5070 Y52.0416
G01 X9.5055 Y52.0217
G01 X9.5064 Y51.9859
G01 X9.5073 Y51.9753
G01 X9.5086 Y51.9656
G01 X9.5116 Y51.9506
G01 X9.5219 Y51.9145
G01 X9.5257 Y51.9043
G01 X9.5315 Y51.8911
G01 X9.5350 Y51.8844
G01 X9.5434 Y51.8704
G01 X9.5494 Y51.8595
G01 X9.5531 Y51.8533
G01 X9.5593 Y51.8445
G01 X9.5717 Y51.8291
G01 X9.5986 Y51.8016
G01 X9.6066 Y51.7947
G01 X9.6161 Y51.7874
G01 X9.6250 Y51.7812
G01 X9.6511 Y51.7654
G01 X9.6645 Y51.7582
G01 X9.6761 Y51.7531
G01 X10.0900 Y51.5817
G01 X10.4337 Y51.2380
G01 X10.6197 Y50.7890
G01 X10.6197 Y50.5245
G01 X10.6204 Y50.5048
G01 X10.6219 Y50.4898
G01 X10.6238 Y50.4782
G01 X10.6316 Y50.4455
G01 X10.6346 Y50.4348
G01 X10.6393 Y50.4221
G01 X10.6454 Y50.4087
G01 X10.6601 Y50.3812
G01 X10.6655 Y50.3720
G01 X10.6751 Y50.3583
G01 X10.6822 Y50.3498
G01 X10.7029 Y50.3271
G01 X10.7140 Y50.3163
G01 X10.7231 Y50.3087
G01 X10.7292 Y50.3041
G01 X10.7609 Y50.2833
G01 X10.7770 Y50.2747
G01 X10.7902 Y50.2691
G01 X10.8248 Y50.2573
G01 X10.8356 Y50.2544
G01 X10.8458 Y50.2523
G01 X10.8605 Y50.2503
G01 X10.8903 Y50.2481
G01 X10.9048 Y50.2478
G01 X10.9149 Y50.2482
G01 X10.9257 Y50.2493
G01 X10.9592 Y50.2551
G01 X10.9732 Y50.2584
G01 X10.9830 Y50.2614
G01 X10.9932 Y50.2652
G01 X11.0283 Y50.2811
G01 X11.0419 Y50.2888
G01 X11.0481 Y50.2928
G01 X11.0571 Y50.2992
G01 X11.0819 Y50.3193
G01 X11.0898 Y50.3263
G01 X11.4067 Y50.6430
G01 X11.6724 Y50.7531
G01 X11.6931 Y50.7634
G01 X11.7076 Y50.7720
G01 X11.7138 Y50.7763
G01 X11.7393 Y50.7958
G01 X11.7499 Y50.8046
G01 X12.0221 Y51.0765
G01 X12.0485 Y51.0958
G01 X12.0569 Y51.1029
G01 X12.0652 Y51.1106
G01 X12.0726 Y51.1184
G01 X12.0933 Y51.1435
G01 X12.1020 Y51.1554
G01 X12.1111 Y51.1704
G01 X12.1274 Y51.2046
G01 X12.1316 Y51.2148
G01 X12.1358 Y51.2271
G01 X12.1394 Y51.2413
G01 X12.1458 Y51.2753
G01 X12.1473 Y51.2904
G01 X12.1476 Y51.3064
G01 X12.1454 Y51.3435
G01 X12.1446 Y51.3506
G01 X12.1427 Y51.3612
G01 X12.1404 Y51.3715
G01 X12.1383 Y51.3789
G01 X12.1276 Y51.4114
G01 X12.1249 Y51.4184
G01 X12.1196 Y51.4299
G01 X12.1124 Y51.4430
G01 X12.0959 Y51.4689
G01 X12.0873 Y51.4809
G01 X12.0804 Y51.4891
G01 X12.0731 Y51.4969
G01 X12.0489 Y51.5196
G01 X12.0380 Y51.5288
G01 X12.0294 Y51.5351
G01 X12.0224 Y51.5397
G01 X11.6710 Y51.8905
G01 X11.4863 Y52.3365
G01 X11.4863 Y52.8195
G01 X11.6711 Y53.2655
G01 X12.0221 Y53.6165
G01 X12.0455 Y53.6336
G01 X12.0542 Y53.6404
G01 X12.0652 Y53.6506
G01 X12.0749 Y53.6612
G01 X12.0956 Y53.6864
G01 X12.1020 Y53.6954
G01 X12.1075 Y53.7040
G01 X12.1145 Y53.7170
G01 X12.1303 Y53.7514
G01 X12.1358 Y53.7671
G01 X12.1394 Y53.7813
G01 X12.1463 Y53.8191
G01 X12.1473 Y53.8304
G01 X12.1477 Y53.8426
G01 X12.1457 Y53.8799
G01 X12.1446 Y53.8906
G01 X12.1434 Y53.8977
G01 X12.1394 Y53.9152
G01 X12.1289 Y53.9478
G01 X12.1234 Y53.9619
G01 X12.1162 Y53.9765
G01 X12.0959 Y54.0089
G01 X12.0873 Y54.0209
G01 X12.0804 Y54.0291
G01 X12.0731 Y54.0369
G01 X12.0489 Y54.0596
G01 X12.0380 Y54.0688
G01 X12.0294 Y54.0751
G01 X12.0224 Y54.0797
G01 X11.6710 Y54.4305
G01 X11.4863 Y54.8765
G01 X11.4863 Y55.3595
G01 X11.6711 Y55.8055
G01 X12.0221 Y56.1565
G01 X12.0455 Y56.1736
G01 X12.0542 Y56.1804
G01 X12.0652 Y56.1906
G01 X12.0749 Y56.2012
G01 X12.0956 Y56.2264
G01 X12.1020 Y56.2354
G01 X12.1075 Y56.2440
G01 X12.1145 Y56.2570
G01 X12.1303 Y56.2914
G01 X12.1358 Y56.3071
G01 X12.1394 Y56.3213
G01 X12.1463 Y56.3591
G01 X12.1473 Y56.3704
G01 X12.1477 Y56.3826
G01 X12.1457 Y56.4199
G01 X12.1446 Y56.4306
G01 X12.1434 Y56.4377
G01 X12.1394 Y56.4552
G01 X12.1289 Y56.4878
G01 X12.1234 Y56.5019
G01 X12.1162 Y56.5165
G01 X12.0959 Y56.5489
G01 X12.0873 Y56.5609
G01 X12.0804 Y56.5691
G01 X12.0731 Y56.5769
G01 X12.0489 Y56.5996
G01 X12.0380 Y56.6088
G01 X12.0294 Y56.6151
G01 X12.0224 Y56.6197
G01 X11.6710 Y56.9705
G01 X11.4863 Y57.4165
G01 X11.4863 Y57.8995
G01 X11.6711 Y58.3455
G01 X12.0125 Y58.6869
G01 X12.4450 Y58.8660
G01 X12.4683 Y58.8772
G01 X12.4805 Y58.8839
G01 X12.4942 Y58.8927
G01 X12.5200 Y58.9128
G01 X12.5281 Y58.9196
G01 X12.5382 Y58.9295
G01 X12.5458 Y58.9378
G01 X12.5671 Y58.9654
G01 X12.5756 Y58.9780
G01 X12.5822 Y58.9894
G01 X12.5856 Y58.9960
G01 X12.6000 Y59.0298
G01 X12.6049 Y59.0443
G01 X12.6074 Y59.0534
G01 X12.6097 Y59.0644
G01 X12.6147 Y59.0976
G01 X12.6157 Y59.1118
G01 X12.6159 Y59.1253
G01 X12.6155 Y59.1329
G01 X12.6121 Y59.1665
G01 X12.6096 Y59.1808
G01 X12.6071 Y59.1910
G01 X12.6040 Y59.2014
G01 X12.5924 Y59.2331
G01 X12.5864 Y59.2464
G01 X12.5797 Y59.2587
G01 X12.5757 Y59.2653
G01 X12.5568 Y59.2926
G01 X12.5497 Y59.3016
G01 X12.5438 Y59.3082
G01 X12.6114 Y59.2984
G01 X12.7000 Y59.2940
G01 X12.7886 Y59.2984
G01 X12.8574 Y59.3084
G01 X12.8421 Y59.2914
G01 X12.8356 Y59.2828
G01 X12.8288 Y59.2727
G01 X12.8216 Y59.2604
G01 X12.8162 Y59.2492
G01 X12.8084 Y59.2350
G01 X12.8053 Y59.2283
G01 X12.8013 Y59.2179
G01 X12.7966 Y59.2039
G01 X12.7888 Y59.1710
G01 X12.7863 Y59.1563
G01 X12.7846 Y59.1361
G01 X12.7853 Y59.0988
G01 X12.7866 Y59.0847
G01 X12.7888 Y59.0710
G01 X12.7905 Y59.0635
G01 X12.8008 Y59.0274
G01 X12.8046 Y59.0172
G01 X12.8104 Y59.0040
G01 X12.8139 Y58.9973
G01 X12.8223 Y58.9833
G01 X12.8283 Y58.9724
G01 X12.8320 Y58.9663
G01 X12.8381 Y58.9574
G01 X12.8507 Y58.9418
G01 X12.8786 Y58.9137
G01 X12.8950 Y58.9003
G01 X12.9039 Y58.8941
G01 X12.9300 Y58.8783
G01 X12.9434 Y58.8711
G01 X12.9550 Y58.8660
G01 X13.3875 Y58.6869
G01 X13.7289 Y58.3455
G01 X13.9137 Y57.8995
G01 X13.9137 Y57.4165
G01 X13.7289 Y56.9705
G01 X13.3782 Y56.6198
G01 X13.3508 Y56.5997
G01 X13.3449 Y56.5948
G01 X13.3353 Y56.5858
G01 X13.3279 Y56.5780
G01 X13.3067 Y56.5525
G01 X13.2980 Y56.5406
G01 X13.2925 Y56.5320
G01 X13.2871 Y56.5223
G01 X13.2713 Y56.4885
G01 X13.2653 Y56.4724
G01 X13.2614 Y56.4583
G01 X13.2542 Y56.4207
G01 X13.2533 Y56.4132
G01 X13.2525 Y56.4011
G01 X13.2525 Y56.3859
G01 X13.2546 Y56.3524
G01 X13.2566 Y56.3383
G01 X13.2605 Y56.3211
G01 X13.2724 Y56.2844
G01 X13.2790 Y56.2691
G01 X13.2861 Y56.2556
G01 X13.3057 Y56.2246
G01 X13.3147 Y56.2126
G01 X13.3259 Y56.2000
G01 X13.3516 Y56.1759
G01 X13.3623 Y56.1669
G01 X13.3706 Y56.1609
G01 X13.3776 Y56.1563
G01 X13.7290 Y55.8055
G01 X13.9137 Y55.3595
G01 X13.9137 Y54.8765
G01 X13.7289 Y54.4305
G01 X13.3782 Y54.0798
G01 X13.3508 Y54.0597
G01 X13.3449 Y54.0548
G01 X13.3353 Y54.0458
G01 X13.3279 Y54.0380
G01 X13.3067 Y54.0125
G01 X13.2980 Y54.0006
G01 X13.2925 Y53.9920
G01 X13.2871 Y53.9823
G01 X13.2713 Y53.9485
G01 X13.2653 Y53.9324
G01 X13.2614 Y53.9183
G01 X13.2542 Y53.8807
G01 X13.2527 Y53.8656
G01 X13.2524 Y53.8497
G01 X13.2546 Y53.8124
G01 X13.2566 Y53.7983
G01 X13.2605 Y53.7811
G01 X13.2724 Y53.7444
G01 X13.2790 Y53.7291
G01 X13.2861 Y53.7156
G01 X13.3057 Y53.6846
G01 X13.3147 Y53.6726
G01 X13.3259 Y53.6600
G01 X13.3516 Y53.6359
G01 X13.3623 Y53.6269
G01 X13.3706 Y53.6209
G01 X13.3776 Y53.6163
G01 X13.7290 Y53.2655
G01 X13.9137 Y52.8195
G01 X13.9137 Y52.3365
G01 X13.7289 Y51.8905
G01 X13.3782 Y51.5398
G01 X13.3508 Y51.5197
G01 X13.3449 Y51.5148
G01 X13.3353 Y51.5058
G01 X13.3279 Y51.4980
G01 X13.3067 Y51.4725
G01 X13.2980 Y51.4606
G01 X13.2925 Y51.4520
G01 X13.2871 Y51.4423
G01 X13.2713 Y51.4085
G01 X13.2653 Y51.3924
G01 X13.2614 Y51.3783
G01 X13.2542 Y51.3407
G01 X13.2527 Y51.3256
G01 X13.2524 Y51.3097
G01 X13.2546 Y51.2724
G01 X13.2566 Y51.2583
G01 X13.2605 Y51.2411
G01 X13.2724 Y51.2044
G01 X13.2790 Y51.1891
G01 X13.2861 Y51.1756
G01 X13.3057 Y51.1446
G01 X13.3147 Y51.1326
G01 X13.3259 Y51.1200
G01 X13.3516 Y51.0959
G01 X13.3623 Y51.0869
G01 X13.3706 Y51.0809
G01 X13.3776 Y51.0763
G01 X13.7290 Y50.7255
G01 X13.9137 Y50.2795
G01 X13.9137 Y49.7965
G01 X13.7289 Y49.3505
G01 X13.3875 Y49.0091
G01 X12.9550 Y48.8300
G01 X12.9317 Y48.8188
G01 X12.9195 Y48.8121
G01 X12.9058 Y48.8033
G01 X12.8800 Y48.7832
G01 X12.8719 Y48.7764
G01 X12.8616 Y48.7663
G01 X12.8539 Y48.7578
G01 X12.8335 Y48.7314
G01 X12.8237 Y48.7168
G01 X12.8143 Y48.6998
G01 X12.8004 Y48.6672
G01 X12.7958 Y48.6539
G01 X12.7926 Y48.6426
G01 X12.7903 Y48.6316
G01 X12.7853 Y48.5984
G01 X12.7843 Y48.5842
G01 X12.7841 Y48.5740
G01 X12.7845 Y48.5628
G01 X12.7879 Y48.5295
G01 X12.7904 Y48.5152
G01 X12.7929 Y48.5050
G01 X12.7960 Y48.4946
G01 X12.8076 Y48.4629
G01 X12.8136 Y48.4496
G01 X12.8203 Y48.4373
G01 X12.8243 Y48.4307
G01 X12.8432 Y48.4034
G01 X12.8503 Y48.3944
G01 X12.8562 Y48.3878
G01 X12.7886 Y48.3976
G01 X12.7000 Y48.4020
G01 X12.6114 Y48.3976
G01 X12.5426 Y48.3876
G01 X12.5532 Y48.3991
G01 X12.5601 Y48.4074
G01 X12.5664 Y48.4161
G01 X12.5748 Y48.4291
G01 X12.5933 Y48.4647
G01 X12.5976 Y48.4748
G01 X12.6034 Y48.4921
G01 X12.6126 Y48.5323
G01 X12.6142 Y48.5434
G01 X12.6153 Y48.5561
G01 X12.6155 Y48.5674
G01 X12.6145 Y48.6007
G01 X12.6134 Y48.6113
G01 X12.6112 Y48.6250
G01 X12.6085 Y48.6363
G01 X12.6003 Y48.6651
G01 X12.5967 Y48.6755
G01 X12.5927 Y48.6851
G01 X12.5896 Y48.6920
G01 X12.5842 Y48.7020
G01 X12.5777 Y48.7127
G01 X12.5699 Y48.7267
G01 X12.5619 Y48.7386
G01 X12.5539 Y48.7488
G01 X12.5468 Y48.7568
G01 X12.5354 Y48.7680
G01 X12.5242 Y48.7797
G01 X12.5158 Y48.7872
G01 X12.5049 Y48.7959
G01 X12.4959 Y48.8021
G01 X12.4703 Y48.8176
G01 X12.4602 Y48.8231
G01 X12.4450 Y48.8300
G01 X12.0271 Y49.0031
G01 X11.9995 Y49.0128
G01 X11.9924 Y49.0148
G01 X11.9768 Y49.0185
G01 X11.9661 Y49.0201
G01 X11.9368 Y49.0235
G01 X11.9260 Y49.0241
G01 X11.9144 Y49.0241
G01 X11.9072 Y49.0238
G01 X11.8964 Y49.0227
G01 X11.8841 Y49.0207
G01 X11.8682 Y49.0188
G01 X11.8544 Y49.0160
G01 X11.8426 Y49.0128
G01 X11.8323 Y49.0093
G01 X11.8173 Y49.0029
G01 X11.8051 Y48.9983
G01 X11.7946 Y48.9935
G01 X11.7831 Y48.9873
G01 X11.7736 Y48.9815
G01 X11.7431 Y48.9591
G01 X11.7348 Y48.9521
G01 X11.7253 Y48.9431
G01 X10.7007 Y47.9185
G01 X10.6912 Y47.9083
G01 X10.6779 Y47.8926
G01 X10.6711 Y47.8830
G01 X10.6562 Y47.8599
G01 X10.6511 Y47.8505
G01 X10.6421 Y47.8319
G01 X10.6383 Y47.8218
G01 X10.6352 Y47.8118
G01 X10.6304 Y47.7987
G01 X10.6276 Y47.7882
G01 X10.6250 Y47.7759
G01 X10.4337 Y47.3140
G01 X10.2779 Y47.1581
G01 X10.2606 Y47.1387
G01 X10.2560 Y47.1330
G01 X10.2498 Y47.1241
G01 X10.2307 Y47.0929
G01 X10.2243 Y47.0802
G01 X10.2176 Y47.0639
G01 X10.2075 Y47.0313
G01 X10.2040 Y47.0173
G01 X10.2014 Y47.0001
G01 X10.1995 Y46.9651
G01 X10.1993 Y46.9544
G01 X10.2000 Y46.9416
G01 X10.2012 Y46.9307
G01 X10.2086 Y46.8936
G01 X10.2125 Y46.8791
G01 X10.2182 Y46.8638
G01 X10.2346 Y46.8295
G01 X10.2420 Y46.8164
G01 X10.2477 Y46.8078
G01 X10.2541 Y46.7992
G01 X10.2758 Y46.7737
G01 X10.2863 Y46.7627
G01 X10.2957 Y46.7544
G01 X10.3017 Y46.7496
G01 X10.3300 Y46.7297
G01 X10.3429 Y46.7217
G01 X10.3536 Y46.7162
G01 X10.3606 Y46.7131
G01 X10.3928 Y46.7009
G01 X10.4073 Y46.6964
G01 X10.4238 Y46.6927
G01 X10.4611 Y46.6884
G01 X10.4759 Y46.6877
G01 X11.7037 Y46.6877
G01 X11.7151 Y46.6883
G01 X11.7339 Y46.6900
G01 X11.7636 Y46.6958
G01 X11.7783 Y46.6996
G01 X11.7967 Y46.7059
G01 X11.8037 Y46.7087
G01 X11.8328 Y46.7228
G01 X11.8422 Y46.7283
G01 X11.8546 Y46.7363
G01 X11.8640 Y46.7430
G01 X11.8700 Y46.7478
G01 X11.8778 Y46.7549
G01 X11.8859 Y46.7615
G01 X11.8941 Y46.7692
G01 X11.9124 Y46.7895
G01 X11.9316 Y46.8162
G01 X11.9389 Y46.8282
G01 X11.9470 Y46.8436
G01 X11.9515 Y46.8535
G01 X11.9627 Y46.8836
G01 X11.9656 Y46.8940
G01 X11.9692 Y46.9094
G01 X11.9711 Y46.9198
G01 X11.9740 Y46.9454
G01 X11.9748 Y46.9598
G01 X11.9967 Y46.9303
G01 X12.0036 Y46.9217
G01 X12.0582 Y46.8614
G01 X12.0661 Y46.8537
G01 X12.1209 Y46.8040
G01 X12.1294 Y46.7969
G01 X12.1978 Y46.7464
G01 X12.2675 Y46.7044
G01 X12.2804 Y46.6974
G01 X12.3473 Y46.6658
G01 X12.3575 Y46.6614
G01 X12.4376 Y46.6329
G01 X12.5165 Y46.6130
G01 X12.5309 Y46.6101
G01 X12.6114 Y46.5984
G01 X12.6926 Y46.5942
G01 X12.7074 Y46.5942
G01 X12.7886 Y46.5984
G01 X12.8574 Y46.6084
G01 X12.8421 Y46.5914
G01 X12.8356 Y46.5828
G01 X12.8288 Y46.5727
G01 X12.8216 Y46.5604
G01 X12.8162 Y46.5492
G01 X12.8084 Y46.5350
G01 X12.8053 Y46.5283
G01 X12.7988 Y46.5110
G01 X12.7948 Y46.4968
G01 X12.7874 Y46.4637
G01 X12.7858 Y46.4526
G01 X12.7847 Y46.4399
G01 X12.7845 Y46.4286
G01 X12.7851 Y46.4154
G01 X12.7851 Y46.4023
G01 X12.7855 Y46.3953
G01 X12.7866 Y46.3847
G01 X12.7888 Y46.3710
G01 X12.7905 Y46.3635
G01 X12.7986 Y46.3344
G01 X12.8033 Y46.3205
G01 X12.8088 Y46.3074
G01 X12.8121 Y46.3006
G01 X12.8301 Y46.2693
G01 X12.8381 Y46.2574
G01 X12.8461 Y46.2472
G01 X12.8532 Y46.2392
G01 X12.8646 Y46.2280
G01 X12.8758 Y46.2163
G01 X12.8842 Y46.2088
G01 X12.8950 Y46.2003
G01 X12.9039 Y46.1941
G01 X12.9300 Y46.1783
G01 X12.9400 Y46.1728
G01 X12.9550 Y46.1660
G01 X13.3875 Y45.9869
G01 X13.7289 Y45.6455
G01 X13.9137 Y45.1995
G01 X13.9137 Y44.7165
G01 X13.7289 Y44.2705
G01 X13.3782 Y43.9198
G01 X13.3517 Y43.9004
G01 X13.3429 Y43.8930
G01 X13.3361 Y43.8866
G01 X13.3282 Y43.8783
G01 X13.3067 Y43.8525
G01 X13.2980 Y43.8406
G01 X13.2909 Y43.8293
G01 X13.2875 Y43.8230
G01 X13.2725 Y43.7914
G01 X13.2670 Y43.7777
G01 X13.2633 Y43.7657
G01 X13.2614 Y43.7584
G01 X13.2549 Y43.7244
G01 X13.2529 Y43.7094
G01 X13.2523 Y43.6934
G01 X13.2543 Y43.6561
G01 X13.2550 Y43.6489
G01 X13.2566 Y43.6383
G01 X13.2605 Y43.6211
G01 X13.2712 Y43.5879
G01 X13.2767 Y43.5740
G01 X13.2842 Y43.5589
G01 X13.3036 Y43.5278
G01 X13.3124 Y43.5155
G01 X13.3207 Y43.5056
G01 X13.3260 Y43.5000
G01 X13.3516 Y43.4759
G01 X13.3623 Y43.4669
G01 X13.3706 Y43.4609
G01 X13.3776 Y43.4563
G01 X13.7290 Y43.1055
G01 X13.9137 Y42.6595
G01 X13.9137 Y42.1765
G01 X13.7289 Y41.7305
G01 X13.3782 Y41.3798
G01 X13.3517 Y41.3604
G01 X13.3429 Y41.3530
G01 X13.3361 Y41.3466
G01 X13.3282 Y41.3383
G01 X13.3067 Y41.3125
G01 X13.2980 Y41.3006
G01 X13.2909 Y41.2893
G01 X13.2875 Y41.2830
G01 X13.2725 Y41.2514
G01 X13.2670 Y41.2377
G01 X13.2633 Y41.2257
G01 X13.2614 Y41.2184
G01 X13.2549 Y41.1844
G01 X13.2529 Y41.1694
G01 X13.2523 Y41.1534
G01 X13.2543 Y41.1161
G01 X13.2550 Y41.1089
G01 X13.2566 Y41.0983
G01 X13.2605 Y41.0811
G01 X13.2712 Y41.0479
G01 X13.2767 Y41.0340
G01 X13.2842 Y41.0189
G01 X13.3036 Y40.9878
G01 X13.3124 Y40.9755
G01 X13.3207 Y40.9656
G01 X13.3260 Y40.9600
G01 X13.3516 Y40.9359
G01 X13.3623 Y40.9269
G01 X13.3706 Y40.9209
G01 X13.3776 Y40.9163
G01 X13.7290 Y40.5655
G01 X13.9137 Y40.1195
G01 X13.9137 Y39.6365
G01 X13.7289 Y39.1905
G01 X13.3782 Y38.8398
G01 X13.3517 Y38.8204
G01 X13.3429 Y38.8130
G01 X13.3361 Y38.8066
G01 X13.3282 Y38.7983
G01 X13.3067 Y38.7725
G01 X13.2980 Y38.7606
G01 X13.2909 Y38.7493
G01 X13.2875 Y38.7430
G01 X13.2725 Y38.7114
G01 X13.2670 Y38.6977
G01 X13.2633 Y38.6857
G01 X13.2614 Y38.6784
G01 X13.2549 Y38.6444
G01 X13.2529 Y38.6294
G01 X13.2523 Y38.6134
G01 X13.2543 Y38.5761
G01 X13.2550 Y38.5689
G01 X13.2566 Y38.5583
G01 X13.2605 Y38.5411
G01 X13.2712 Y38.5079
G01 X13.2767 Y38.4940
G01 X13.2842 Y38.4789
G01 X13.3036 Y38.4478
G01 X13.3124 Y38.4355
G01 X13.3207 Y38.4256
G01 X13.3260 Y38.4200
G01 X13.3516 Y38.3959
G01 X13.3623 Y38.3869
G01 X13.3706 Y38.3809
G01 X13.3776 Y38.3763
G01 X13.7290 Y38.0255
G01 X13.9137 Y37.5795
G01 X13.9137 Y37.0965
G01 X13.7289 Y36.6505
G01 X13.3875 Y36.3091
G01 X12.9550 Y36.1300
G01 X12.9317 Y36.1188
G01 X12.9225 Y36.1139
G01 X12.9063 Y36.1037
G01 X12.8732 Y36.0776
G01 X12.8650 Y36.0697
G01 X12.8539 Y36.0578
G01 X12.8335 Y36.0314
G01 X12.8237 Y36.0168
G01 X12.8143 Y35.9998
G01 X12.8004 Y35.9672
G01 X12.7958 Y35.9539
G01 X12.7926 Y35.9426
G01 X12.7903 Y35.9316
G01 X12.7853 Y35.8984
G01 X12.7843 Y35.8842
G01 X12.7841 Y35.8740
G01 X12.7845 Y35.8628
G01 X12.7879 Y35.8295
G01 X12.7904 Y35.8152
G01 X12.7929 Y35.8050
G01 X12.7960 Y35.7946
G01 X12.8076 Y35.7629
G01 X12.8136 Y35.7496
G01 X12.8203 Y35.7373
G01 X12.8243 Y35.7307
G01 X12.8432 Y35.7034
G01 X12.8503 Y35.6944
G01 X12.8562 Y35.6878
G01 X12.7886 Y35.6976
G01 X12.7000 Y35.7020
G01 X12.6114 Y35.6976
G01 X12.5426 Y35.6876
G01 X12.5579 Y35.7046
G01 X12.5644 Y35.7132
G01 X12.5713 Y35.7232
G01 X12.5784 Y35.7356
G01 X12.5842 Y35.7472
G01 X12.5903 Y35.7585
G01 X12.5949 Y35.7683
G01 X12.6000 Y35.7817
G01 X12.6034 Y35.7922
G01 X12.6117 Y35.8271
G01 X12.6141 Y35.8415
G01 X12.6156 Y35.8614
G01 X12.6145 Y35.9007
G01 X12.6119 Y35.9213
G01 X12.6085 Y35.9363
G01 X12.6046 Y35.9490
G01 X12.6014 Y35.9616
G01 X12.5980 Y35.9720
G01 X12.5928 Y35.9849
G01 X12.5881 Y35.9950
G01 X12.5697 Y36.0271
G01 X12.5638 Y36.0360
G01 X12.5561 Y36.0461
G01 X12.5468 Y36.0568
G01 X12.5214 Y36.0823
G01 X12.5158 Y36.0872
G01 X12.5049 Y36.0959
G01 X12.4959 Y36.1021
G01 X12.4703 Y36.1176
G01 X12.4567 Y36.1248
G01 X12.4450 Y36.1300
G01 X12.0125 Y36.3091
G01 X11.8292 Y36.4924
G01 X11.8190 Y36.5020
G01 X11.8064 Y36.5128
G01 X11.7937 Y36.5221
G01 X11.7847 Y36.5277
G01 X11.7737 Y36.5352
G01 X11.7644 Y36.5405
G01 X11.7404 Y36.5519
G01 X11.7128 Y36.5617
G01 X11.6989 Y36.5656
G01 X11.6767 Y36.5701
G01 X11.6653 Y36.5715
G01 X11.6546 Y36.5720
G01 X11.6444 Y36.5731
G01 X11.6334 Y36.5735
G01 X10.3337 Y36.5735
G01 X10.3225 Y36.5731
G01 X10.3014 Y36.5712
G01 X10.2722 Y36.5655
G01 X10.2653 Y36.5640
G01 X10.2551 Y36.5610
G01 X10.2389 Y36.5555
G01 X10.2283 Y36.5511
G01 X10.1993 Y36.5366
G01 X10.1775 Y36.5227
G01 X10.1653 Y36.5134
G01 X10.1579 Y36.5067
G01 X10.1472 Y36.4978
G01 X10.1415 Y36.4925
G01 X9.0690 Y35.4199
G01 X8.7881 Y35.3035
G01 X8.7343 Y35.3035
G01 X8.7182 Y35.3029
G01 X8.7045 Y35.3015
G01 X8.6905 Y35.2993
G01 X8.6772 Y35.2960
G01 X8.6631 Y35.2931
G01 X8.6520 Y35.2900
G01 X8.6372 Y35.2847
G01 X8.6272 Y35.2805
G01 X8.6208 Y35.2773
G01 X8.6117 Y35.2723
G01 X8.5991 Y35.2661
G01 X8.5868 Y35.2589
G01 X8.5755 Y35.2511
G01 X8.5664 Y35.2441
G01 X8.5552 Y35.2339
G01 X8.5439 Y35.2243
G01 X8.5385 Y35.2192
G01 X8.5242 Y35.2032
G01 X8.5151 Y35.1909
G01 X8.4968 Y35.1633
G01 X8.4854 Y35.1409
G01 X8.4813 Y35.1307
G01 X8.4713 Y35.1021
G01 X8.4669 Y35.0847
G01 X8.4645 Y35.0721
G01 X8.2747 Y34.6140
G01 X7.9310 Y34.2703
G01 X7.4820 Y34.0843
G01 X6.9960 Y34.0843
G01 X6.5470 Y34.2703
G01 X6.2033 Y34.6140
G01 X6.0293 Y35.0339
G01 X6.0175 Y35.0574
G01 X6.0096 Y35.0707
G01 X6.0056 Y35.0766
G01 X5.9819 Y35.1068
G01 X5.9743 Y35.1152
G01 X5.9626 Y35.1265
G01 X5.9538 Y35.1337
G01 X5.9433 Y35.1414
G01 X5.9333 Y35.1494
G01 X5.9187 Y35.1592
G01 X5.9019 Y35.1685
G01 X5.8681 Y35.1829
G01 X5.8536 Y35.1878
G01 X5.8445 Y35.1903
G01 X5.8335 Y35.1926
G01 X5.7968 Y35.1980
G01 X5.7764 Y35.1988
G01 X5.7613 Y35.1981
G01 X5.7314 Y35.1950
G01 X5.7207 Y35.1933
G01 X5.6999 Y35.1881
G01 X5.6682 Y35.1766
G01 X5.6547 Y35.1709
G01 X5.6359 Y35.1607
G01 X5.6053 Y35.1397
G01 X5.5944 Y35.1310
G01 X5.6070 Y35.2166
G01 X5.6114 Y35.3060
G01 X5.6114 Y36.8300
G01 X5.6070 Y36.9194
G01 X5.5942 Y37.0064
G01 X5.6010 Y36.9999
G01 X5.6093 Y36.9930
G01 X5.6221 Y36.9838
G01 X5.6312 Y36.9781
G01 X5.6669 Y36.9596
G01 X5.6769 Y36.9555
G01 X5.6871 Y36.9519
G01 X5.6977 Y36.9487
G01 X5.7135 Y36.9453
G01 X5.7254 Y36.9422
G01 X5.7362 Y36.9400
G01 X5.7434 Y36.9390
G01 X5.7633 Y36.9375
G01 X5.7991 Y36.9384
G01 X5.8097 Y36.9393
G01 X5.8232 Y36.9412
G01 X5.8382 Y36.9446
G01 X5.8705 Y36.9539
G01 X5.8807 Y36.9577
G01 X5.8939 Y36.9635
G01 X5.9039 Y36.9689
G01 X5.9146 Y36.9754
G01 X5.9286 Y36.9832
G01 X5.9405 Y36.9913
G01 X5.9559 Y37.0037
G01 X5.9809 Y37.0281
G01 X5.9903 Y37.0386
G01 X6.0018 Y37.0539
G01 X6.0215 Y37.0864
G01 X6.0283 Y37.1000
G01 X6.2033 Y37.5220
G01 X6.4584 Y37.7771
G01 X6.4715 Y37.7912
G01 X6.4836 Y37.8061
G01 X6.4901 Y37.8156
G01 X6.5074 Y37.8434
G01 X6.5159 Y37.8610
G01 X6.5211 Y37.8742
G01 X6.5311 Y37.9057
G01 X6.5356 Y37.9267
G01 X6.5375 Y37.9410
G01 X6.5382 Y37.9557
G01 X6.5394 Y37.9703
G01 X6.5393 Y37.9848
G01 X6.5386 Y37.9961
G01 X6.5374 Y38.0071
G01 X6.5313 Y38.0394
G01 X6.5276 Y38.0532
G01 X6.5230 Y38.0674
G01 X6.5203 Y38.0742
G01 X6.5064 Y38.1040
G01 X6.4989 Y38.1174
G01 X6.4888 Y38.1328
G01 X6.4661 Y38.1605
G01 X6.4585 Y38.1688
G01 X6.2033 Y38.4240
G01 X6.0293 Y38.8439
G01 X6.0175 Y38.8674
G01 X6.0076 Y38.8837
G01 X6.0013 Y38.8923
G01 X5.9844 Y38.9139
G01 X5.9743 Y38.9252
G01 X5.9597 Y38.9390
G01 X5.9305 Y38.9615
G01 X5.9217 Y38.9674
G01 X5.9117 Y38.9733
G01 X5.8986 Y38.9800
G01 X5.8646 Y38.9942
G01 X5.8445 Y39.0003
G01 X5.8298 Y39.0032
G01 X5.8003 Y39.0076
G01 X5.7897 Y39.0085
G01 X5.7688 Y39.0086
G01 X5.7314 Y39.0050
G01 X5.7171 Y39.0025
G01 X5.7069 Y39.0000
G01 X5.6965 Y38.9969
G01 X5.6614 Y38.9839
G01 X5.6547 Y38.9809
G01 X5.6425 Y38.9745
G01 X5.6326 Y38.9686
G01 X5.6192 Y38.9590
G01 X5.6084 Y38.9520
G01 X5.6022 Y38.9474
G01 X5.5944 Y38.9410
G01 X5.6070 Y39.0266
G01 X5.6114 Y39.1160
G01 X5.6114 Y40.6400
G01 X5.6070 Y40.7294
G01 X5.5942 Y40.8164
G01 X5.6010 Y40.8099
G01 X5.6093 Y40.8030
G01 X5.6221 Y40.7938
G01 X5.6312 Y40.7881
G01 X5.6669 Y40.7696
G01 X5.6769 Y40.7655
G01 X5.6871 Y40.7619
G01 X5.6977 Y40.7587
G01 X5.7135 Y40.7553
G01 X5.7254 Y40.7522
G01 X5.7362 Y40.7500
G01 X5.7434 Y40.7490
G01 X5.7633 Y40.7475
G01 X5.7991 Y40.7484
G01 X5.8097 Y40.7493
G01 X5.8232 Y40.7512
G01 X5.8382 Y40.7546
G01 X5.8705 Y40.7639
G01 X5.8807 Y40.7677
G01 X5.8939 Y40.7735
G01 X5.9039 Y40.7789
G01 X5.9146 Y40.7854
G01 X5.9286 Y40.7932
G01 X5.9405 Y40.8013
G01 X5.9559 Y40.8137
G01 X5.9696 Y40.8274
G01 X5.9784 Y40.8356
G01 X5.9858 Y40.8433
G01 X5.9903 Y40.8486
G01 X6.0018 Y40.8639
G01 X6.0196 Y40.8931
G01 X6.0268 Y40.9065
G01 X6.0319 Y40.9181
G01 X6.2033 Y41.3320
G01 X6.4585 Y41.5872
G01 X6.4691 Y41.5984
G01 X6.4800 Y41.6113
G01 X6.4888 Y41.6234
G01 X6.4960 Y41.6354
G01 X6.5057 Y41.6505
G01 X6.5111 Y41.6606
G01 X6.5184 Y41.6768
G01 X6.5222 Y41.6874
G01 X6.5321 Y41.7192
G01 X6.5356 Y41.7367
G01 X6.5375 Y41.7510
G01 X6.5395 Y41.7839
G01 X6.5394 Y41.7912
G01 X6.5386 Y41.8061
G01 X6.5368 Y41.8207
G01 X6.5337 Y41.8352
G01 X6.5313 Y41.8494
G01 X6.5276 Y41.8632
G01 X6.5217 Y41.8808
G01 X6.5081 Y41.9105
G01 X6.5028 Y41.9208
G01 X6.4928 Y41.9370
G01 X6.4866 Y41.9457
G01 X6.4754 Y41.9589
G01 X6.4664 Y41.9703
G01 X6.4612 Y41.9761
G01 X6.2033 Y42.2340
G01 X6.0293 Y42.6539
G01 X6.0175 Y42.6774
G01 X6.0076 Y42.6937
G01 X6.0013 Y42.7023
G01 X5.9849 Y42.7232
G01 X5.9756 Y42.7339
G01 X5.9657 Y42.7437
G01 X5.9572 Y42.7510
G01 X5.9294 Y42.7722
G01 X5.9231 Y42.7765
G01 X5.9116 Y42.7834
G01 X5.8983 Y42.7902
G01 X5.8659 Y42.8038
G01 X5.8558 Y42.8071
G01 X5.8445 Y42.8103
G01 X5.8298 Y42.8132
G01 X5.8003 Y42.8176
G01 X5.7897 Y42.8185
G01 X5.7688 Y42.8186
G01 X5.7314 Y42.8150
G01 X5.7171 Y42.8125
G01 X5.7071 Y42.8101
G01 X5.6968 Y42.8070
G01 X5.6611 Y42.7938
G01 X5.6545 Y42.7908
G01 X5.6425 Y42.7845
G01 X5.6326 Y42.7786
G01 X5.6192 Y42.7690
G01 X5.6084 Y42.7620
G01 X5.6022 Y42.7574
G01 X5.5944 Y42.7510
G01 X5.6070 Y42.8366
G01 X5.6114 Y42.9260
G01 X5.6114 Y44.4500
G01 X5.6070 Y44.5394
G01 X5.5942 Y44.6264
G01 X5.6010 Y44.6199
G01 X5.6093 Y44.6130
G01 X5.6282 Y44.5999
G01 X5.6375 Y44.5947
G01 X5.6491 Y44.5889
G01 X5.6604 Y44.5828
G01 X5.6736 Y44.5768
G01 X5.6941 Y44.5697
G01 X5.7288 Y44.5614
G01 X5.7426 Y44.5591
G01 X5.7531 Y44.5581
G01 X5.7636 Y44.5575
G01 X5.7991 Y44.5584
G01 X5.8097 Y44.5593
G01 X5.8194 Y44.5606
G01 X5.8344 Y44.5636
G01 X5.8705 Y44.5739
G01 X5.8870 Y44.5804
G01 X5.9006 Y44.5870
G01 X5.9317 Y44.6051
G01 X5.9405 Y44.6113
G01 X5.9501 Y44.6186
G01 X5.9581 Y44.6257
G01 X5.9696 Y44.6373
G01 X5.9791 Y44.6463
G01 X5.9843 Y44.6517
G01 X5.9916 Y44.6602
G01 X5.9999 Y44.6712
G01 X6.0040 Y44.6772
G01 X6.0232 Y44.7095
G01 X6.0319 Y44.7281
G01 X6.1040 Y44.9023
G01 X6.1093 Y44.9168
G01 X6.1150 Y44.9360
G01 X6.1210 Y44.9684
G01 X6.1226 Y44.9798
G01 X6.1237 Y45.0004
G01 X6.1234 Y45.0120
G01 X6.1220 Y45.0270
G01 X6.1210 Y45.0421
G01 X6.1187 Y45.0574
G01 X6.1167 Y45.0672
G01 X6.1140 Y45.0776
G01 X6.1080 Y45.0945
G01 X6.1047 Y45.1050
G01 X6.1007 Y45.1157
G01 X6.0975 Y45.1227
G01 X6.0893 Y45.1387
G01 X6.0700 Y45.1686
G01 X6.0611 Y45.1805
G01 X6.0518 Y45.1912
G01 X6.0438 Y45.1994
G01 X6.0188 Y45.2219
G01 X6.0100 Y45.2287
G01 X5.9985 Y45.2367
G01 X5.9862 Y45.2439
G01 X5.9763 Y45.2488
G01 X5.9632 Y45.2561
G01 X5.9563 Y45.2594
G01 X5.7551 Y45.3428
G01 X5.7387 Y45.3490
G01 X5.7207 Y45.3544
G01 X5.7068 Y45.3574
G01 X5.6735 Y45.3627
G01 X5.6527 Y45.3638
G01 X5.6418 Y45.3635
G01 X5.6122 Y45.3610
G01 X5.6049 Y45.3602
G01 X5.5940 Y45.3583
G01 X5.5831 Y45.3559
G01 X5.5728 Y45.3529
G01 X5.5384 Y45.3406
G01 X5.5287 Y45.3363
G01 X5.5126 Y45.3277
G01 X5.4841 Y45.3088
G01 X5.4754 Y45.3025
G01 X5.4699 Y45.2980
G01 X5.4623 Y45.2913
G01 X5.4545 Y45.2837
G01 X5.4297 Y45.2557
G01 X5.4167 Y45.2375
G01 X5.4111 Y45.2282
G01 X5.4041 Y45.2141
G01 X5.3964 Y45.1999
G01 X5.3904 Y45.1859
G01 X5.3858 Y45.1726
G01 X5.3838 Y45.1656
G01 X5.3769 Y45.1361
G01 X5.3749 Y45.1251
G01 X5.3731 Y45.1105
G01 X5.3725 Y45.0996
G01 X5.3734 Y45.0631
G01 X5.3492 Y45.0898
G01 X5.3415 Y45.0977
G01 X5.2806 Y45.1529
G01 X5.2720 Y45.1598
G01 X5.2119 Y45.2044
G01 X5.2034 Y45.2103
G01 X5.2217 Y45.2122
G01 X5.2330 Y45.2141
G01 X5.2656 Y45.2223
G01 X5.2760 Y45.2255
G01 X5.2910 Y45.2314
G01 X5.3008 Y45.2360
G01 X5.3159 Y45.2445
G01 X5.3282 Y45.2509
G01 X5.3374 Y45.2566
G01 X5.3520 Y45.2672
G01 X5.3606 Y45.2743
G01 X5.3838 Y45.2962
G01 X5.3917 Y45.3046
G01 X5.4016 Y45.3166
G01 X5.4082 Y45.3258
G01 X5.4160 Y45.3386
G01 X5.4243 Y45.3512
G01 X5.4299 Y45.3613
G01 X5.4361 Y45.3744
G01 X5.4401 Y45.3842
G01 X5.4502 Y45.4155
G01 X5.4530 Y45.4260
G01 X5.4562 Y45.4429
G01 X5.4576 Y45.4540
G01 X5.4583 Y45.4690
G01 X5.4595 Y45.4840
G01 X5.4595 Y45.4950
G01 X5.4587 Y45.5092
G01 X5.4575 Y45.5201
G01 X5.4514 Y45.5526
G01 X5.4489 Y45.5628
G01 X5.4443 Y45.5773
G01 X5.4402 Y45.5881
G01 X5.4324 Y45.6041
G01 X5.4268 Y45.6168
G01 X5.4196 Y45.6299
G01 X5.4129 Y45.6403
G01 X5.4067 Y45.6490
G01 X5.3955 Y45.6622
G01 X5.3865 Y45.6736
G01 X5.3786 Y45.6822
G01 X4.3501 Y46.7103
G01 X4.3347 Y46.7236
G01 X4.3253 Y46.7307
G01 X4.3020 Y46.7460
G01 X4.2895 Y46.7529
G01 X4.2676 Y46.7632
G01 X4.2411 Y46.7725
G01 X4.2272 Y46.7764
G01 X4.2087 Y46.7803
G01 X4.1936 Y46.7823
G01 X4.1654 Y46.7843
G01 X3.9480 Y46.7843
G01 X3.4991 Y46.9702
G01 X3.4820 Y46.9860
G01 X3.4675 Y46.9977
G01 X3.4584 Y47.0038
G01 X3.4303 Y47.0209
G01 X3.4176 Y47.0273
G01 X3.4048 Y47.0327
G01 X3.3652 Y47.0451
G01 X3.3511 Y47.0482
G01 X3.3410 Y47.0498
G01 X3.3306 Y47.0507
G01 X3.2954 Y47.0523
G01 X3.2847 Y47.0520
G01 X3.2754 Y47.0513
G01 X3.2611 Y47.0492
G01 X3.2236 Y47.0412
G01 X3.2075 Y47.0360
G01 X3.1935 Y47.0301
G01 X3.1636 Y47.0153
G01 X3.1506 Y47.0076
G01 X3.1376 Y46.9983
G01 X3.1106 Y46.9754
G01 X3.0999 Y46.9650
G01 X3.0894 Y46.9530
G01 X3.0650 Y46.9184
G01 X3.0574 Y46.9053
G01 X3.0505 Y46.8910
G01 X3.0383 Y46.8588
G01 X3.0347 Y46.8480
G01 X3.0314 Y46.8348
G01 X3.0296 Y46.8244
G01 X3.0258 Y46.7904
G01 X3.0251 Y46.7757
G01 X3.0251 Y32.0918
G01 X3.0253 Y32.0845
G01 X3.0266 Y32.0678
G01 X3.0286 Y32.0533
G01 X3.0349 Y32.0234
G01 X3.0370 Y32.0161
G01 X3.0433 Y31.9977
G01 X3.0476 Y31.9872
G01 X3.0542 Y31.9744
G01 X3.0586 Y31.9649
G01 X3.0638 Y31.9553
G01 X3.0677 Y31.9491
G01 X3.0759 Y31.9366
G01 X3.0828 Y31.9274
G01 X3.0919 Y31.9170
G01 X3.0982 Y31.9092
G01 X3.1061 Y31.9006
G01 X11.7409 Y23.2659
G01 X11.8727 Y22.9476
G01 X11.8727 Y9.6598
G01 X11.8731 Y9.6458
G01 X11.8754 Y9.6220
G01 X11.8812 Y9.5928
G01 X11.8839 Y9.5819
G01 X11.8905 Y9.5624
G01 X11.8944 Y9.5525
G01 X11.9017 Y9.5380
G01 X11.9057 Y9.5292
G01 X11.9110 Y9.5193
G01 X11.9221 Y9.5022
G01 X11.9282 Y9.4936
G01 X11.9460 Y9.4724
G01 X11.9538 Y9.4639
G01 X17.6766 Y3.7411
G01 X17.6868 Y3.7316
G01 X17.6994 Y3.7208
G01 X17.7121 Y3.7115
G01 X17.7211 Y3.7059
G01 X17.7293 Y3.7002
G01 X17.7387 Y3.6946
G01 X17.7631 Y3.6826
G01 X17.7730 Y3.6788
G01 X17.7831 Y3.6757
G01 X17.7930 Y3.6719
G01 X17.7999 Y3.6698
G01 X17.8104 Y3.6672
G01 X17.8329 Y3.6629
G01 X17.8651 Y3.6603
G01 X19.0897 Y3.6601
G01 X19.1129 Y3.6610
G01 X19.1281 Y3.6628
G01 X19.1396 Y3.6650
G01 X19.1723 Y3.6729
G01 X19.1829 Y3.6762
G01 X19.1921 Y3.6797
G01 X19.2055 Y3.6858
G01 X19.2362 Y3.7022
G01 X19.2452 Y3.7079
G01 X19.2529 Y3.7133
G01 X19.2644 Y3.7226
G01 X19.2899 Y3.7460
G01 X19.3004 Y3.7574
G01 X19.3098 Y3.7693
G01 X19.3308 Y3.8011
G01 X19.3376 Y3.8135
G01 X19.3451 Y3.8305
G01 X19.3571 Y3.8660
G01 X19.3620 Y3.8863
G01 X19.3639 Y3.9009
G01 X19.3663 Y3.9343
G01 X19.3664 Y3.9452
G01 X19.3657 Y3.9589
G01 X19.3643 Y3.9695
G01 X19.3583 Y4.0032
G01 X19.3538 Y4.0201
G01 X19.3502 Y4.0306
G01 X19.3336 Y4.0676
G01 X19.3286 Y4.0769
G01 X19.3232 Y4.0858
G01 X19.3145 Y4.0981
G01 X19.2957 Y4.1216
G01 X19.2842 Y4.1341
G01 X19.0983 Y4.5830
G01 X19.0982 Y5.4784
G01 X19.0964 Y5.5025
G01 X19.0948 Y5.5133
G01 X19.0885 Y5.5432
G01 X19.0814 Y5.5654
G01 X19.0788 Y5.5724
G01 X19.0742 Y5.5828
G01 X19.0692 Y5.5922
G01 X19.0632 Y5.6050
G01 X19.0577 Y5.6144
G01 X19.0475 Y5.6300
G01 X19.0430 Y5.6362
G01 X19.0226 Y5.6603
G01 X18.6358 Y6.0474
G01 X18.5039 Y6.3657
G01 X18.5039 Y8.0993
G01 X18.5036 Y8.1126
G01 X18.5020 Y8.1318
G01 X18.5010 Y8.1391
G01 X18.4975 Y8.1554
G01 X18.4958 Y8.1649
G01 X18.4931 Y8.1759
G01 X18.4874 Y8.1934
G01 X18.4837 Y8.2033
G01 X18.4793 Y8.2130
G01 X18.4670 Y8.2373
G01 X18.4613 Y8.2466
G01 X18.4509 Y8.2622
G01 X18.4438 Y8.2713
G01 X18.4371 Y8.2787
G01 X18.4282 Y8.2895
G01 X18.3303 Y8.3876
G01 X18.2603 Y8.5565
G01 X18.2603 Y10.2395
G01 X18.3303 Y10.4084
G01 X18.4299 Y10.5083
G01 X18.4424 Y10.5227
G01 X18.4491 Y10.5313
G01 X18.4637 Y10.5534
G01 X18.4692 Y10.5626
G01 X18.4784 Y10.5808
G01 X18.4827 Y10.5906
G01 X18.4943 Y10.6245
G01 X18.4968 Y10.6349
G01 X18.5005 Y10.6534
G01 X18.5019 Y10.6648
G01 X18.5024 Y10.6755
G01 X18.5035 Y10.6857
G01 X18.5039 Y10.6967
G01 X18.5039 Y13.7003
G01 X18.6358 Y14.0186
G01 X19.0243 Y14.4074
G01 X19.0376 Y14.4228
G01 X19.0424 Y14.4290
G01 X19.0602 Y14.4558
G01 X19.0656 Y14.4653
G01 X19.0728 Y14.4800
G01 X19.0771 Y14.4898
G01 X19.0796 Y14.4964
G01 X19.0886 Y14.5233
G01 X19.0942 Y14.5484
G01 X19.0963 Y14.5638
G01 X19.0983 Y14.5921
G01 X19.0983 Y15.4830
G01 X19.2843 Y15.9320
G01 X19.6280 Y16.2757
G01 X20.0770 Y16.4617
G01 X20.5630 Y16.4617
G01 X21.0120 Y16.2757
G01 X21.3557 Y15.9320
G01 X21.5297 Y15.5121
G01 X21.5415 Y15.4886
